!!!!SEGMENT: pl-kk--kk-i-340--001_gorczycki-grzegorz-gerwazy--iste-confessor-domini.krn
!!!cenid: 17xx:2150
!!!COM: Gorczycki, Grzegorz Gerwazy
!!!COM-rismID: pe30009207
!!!CDT: ~1666-1734/04/30
!!!CNT: Polish
!!!OTL: Iste confessor Domini
!!!PDT:
!!!AGN: Sacred
!!!SMS-siglum: PL-Kk
!!!SMS-shelfmark: Kk.I.340
!!!SMS-shelfwork: 001 W
!!!SMS-variant:
!!!SMS-altvar:
!!!NIFC-rismSourceID: 1001144986
!!!NIFC-islandoraID: pl-kk:5687
!!!URL-pdf-islandora: https://repozytorium.nifc.pl/islandora/object/pl-kk%3A5687/datastream/PDF/view
!!!URL-scan: https://polish.musicsources.pl/pl/lokalizacje/galeria/rekopisy/5957 @EN{Scan on Polish Music Sources Website} @PL{Skany w portalu Dziedzictwo Muzyki Polskiej w otwartym dostępie}
!!!ONB-nifc: UWAGA: utwory w zbiorze: 1. Iste confessor Domini, 2. Oramus Domine conditor
!!!AIN: 1 alto 2 empty 1 tenor 1 vox
!!!key: C
**kern	**text	**text	**kern	**text	**text	**kern	**text	**text	**kern	**text	**text	**kern	**text	**text
*part5	*part5	*part5	*part4	*part4	*part4	*part3	*part3	*part3	*part2	*part2	*part2	*part1	*part1	*part1
*staff5	*staff5	*staff5	*staff4	*staff4	*staff4	*staff3	*staff3	*staff3	*staff2	*staff2	*staff2	*staff1	*staff1	*staff1
*Iempty	*	*	*Iempty	*	*	*Itenor	*	*	*Ialto	*	*	*Ivox	*	*
*I"Baſso Ripieno.	*	*	*I"Baſso.	*	*	*I"Tenore	*	*	*I"Alto.	*	*	*I"Canto	*	*
*I'B rip	*	*	*I'B	*	*	*I'T	*	*	*I'A	*	*	*I'S	*	*
*Ibass	*	*	*Ibass	*	*	*Itenor	*	*	*Ialto	*	*	*Isoprn	*	*
*ICvox	*	*	*ICvox	*	*	*ICvox	*	*	*ICvox	*	*	*ICvox	*	*
*IGripn	*	*	*	*	*	*	*	*	*	*	*	*	*	*
*mI"Basso ripieno	*	*	*mI"Basso	*	*	*	*	*	*mI"Alto	*	*	*mI"Soprano	*	*
*clefF4	*	*	*clefF4	*	*	*clefC4	*	*	*clefC3	*	*	*clefC1	*	*
*	*	*	*	*	*	*mclefGv2	*	*	*mclefG2	*	*	*mclefG2	*	*
*k[]	*	*	*k[]	*	*	*k[]	*	*	*k[]	*	*	*k[]	*	*
*C:	*	*	*C:	*	*	*C:	*	*	*C:	*	*	*C:	*	*
*M2/1	*	*	*M2/1	*	*	*M2/1	*	*	*M2/1	*	*	*M2/1	*	*
*met(C|)	*	*	*met(C|)	*	*	*met(C|)	*	*	*met(C|)	*	*	*met(C|)	*	*
*mmet(c)	*	*	*mmet(c)	*	*	*mmet(c)	*	*	*mmet(c)	*	*	*mmet(c)	*	*
!LO:TX:t=P:problem=kreska pseudotaktowa	!	!	!	!	!	!LO:TX:a:i:t=A R(?) GGG 1698	!	!	!	!	!	!	!	!
*	*	*	*	*	*	*lig	*	*	*	*	*	*	*	*
!	!	!	!	!	!	!	!	!	!	!	!	!LO:TX:t=P:problem=kreska pseudotaktowa	!	!
!	!	!	!	!	!	!LO:TX:t=P:problem=I wielkie, przed kluczem, na pocz. pięciolinii	!	!	!	!	!	!LO:TX:a:i:t=R. G G G. 1698:mod=	!	!
!	!	!	!	!	!	!	!	!	!LO:TX:t=P:problem=kreska pseudotaktowa	!	!	!	!	!
!	!	!	!	!	!	!LO:TX:a:i:t=A A G G G. 1698.:mod=	!	!	!	!	!	!	!	!
1r	.	.	1r	.	.	1G	I-	Qui	00r	.	.	0r	.	.
!LO:TX:t=P:problem=I wielkie, przed kluczem, na pocz. pięciolinii	!	!	!	!	!	!	!	!	!	!	!	!	!	!
*lig	*	*	*	*	*	*	*	*	*	*	*	*	*	*
!	!	!	!LO:TX:t=P:problem=I wielkie, przed kluczem, na pocz. pięciolinii	!	!	!	!	!	!	!	!	!	!	!
*	*	*	*lig	*	*	*	*	*	*	*	*	*	*	*
!	!	!	!LO:TX:a:i:t=A R G G G 1698:mod=	!	!	!	!	!	!	!	!	!	!	!
1D	1. I-	2. Qui	1D	I-	Qui	1A	.	.	.	.	.	.	.	.
*	*	*	*	*	*	*Xlig	*	*	*	*	*	*	*	*
=1-	=1-	=1-	=1-	=1-	=1-	=1-	=1-	=1-	=1-	=1-	=1-	=1-	=1-	=1-
*	*	*	*	*	*	*	*	*	*	*	*	*lig	*	*
1E	.	.	1E	.	.	2G/	-ſte	pi-	.	.	.	1g	I-	Qui
!	!	!	!	!	!	!LO:TX:t=P:problem=kreska pseudotaktowa	!	!	!	!	!	!	!	!
.	.	.	.	.	.	2E/	con-	-us	.	.	.	.	.	.
*Xlig	*	*	*Xlig	*	*	*	*	*	*	*	*	*	*	*
!LO:TX:t=P:problem=kreska pseudotaktowa	!	!	!	!	!	!	!	!	!	!	!	!	!	!
*	*	*	*lig	*	*	*	*	*	*	*	*	*	*	*
1D	-ſte	pi-	1D	-ſte	pi-	1F	-feſ-	pru-	.	.	.	1a	.	.
*	*	*	*	*	*	*	*	*	*	*	*	*Xlig	*	*
=2-	=2-	=2-	=2-	=2-	=2-	=2-	=2-	=2-	=2-	=2-	=2-	=2-	=2-	=2-
!	!	!	!LO:TX:t=P:problem=kreska pseudotaktowa	!	!	!LO:TX:t=P:problem=kreska pseudotaktowa	!	!	!	!	!	!	!	!
*	*	*	*	*	*	*	*	*	*lig	*	*	*lig	*	*
!	!LO:MO:mod=con-	!	!	!	!	!	!	!	!	!	!	!	!	!
1BB	Con-	.	1BB	.	.	1G	.	.	1d	I-	Qui	1g	-ſte	pi-
*	*	*	*Xlig	*	*	*	*	*	*	*	*	*	*	*
!	!	!	!	!	!	!	!	!	!LO:TX:t=P:problem=kreska pseudotaktowa	!	!	!LO:TX:t=P:problem=kreska pseudotaktowa	!	!
1C	-feſ-	-us	1C	con-	-us	2G/	-ſor	-dens	1e	.	.	1e	.	.
.	.	.	.	.	.	1A\	Do-	hu-	.	.	.	.	.	.
*	*	*	*	*	*	*	*	*	*Xlig	*	*	*Xlig	*	*
=3-	=3-	=3-	=3-	=3-	=3-	=3-	=3-	=3-	=3-	=3-	=3-	=3-	=3-	=3-
!LO:TX:t=P:problem=kreska pseudotaktowa	!	!	!LO:TX:t=P:problem=kreska pseudotaktowa	!	!	!	!	!	!	!	!	!	!	!
1D	.	.	1D	-feſ-	pru-	.	.	.	2d\	-ſte	pi-	2a\	con-	-us
!	!	!	!	!	!	!LO:TX:t=P:problem=kreska pseudotaktowa	!	!	!LO:TX:t=P:problem=kreska pseudotaktowa	!LO:MO:mod=con-	!LO:MO:mod=-us	!	!	!
.	.	.	.	.	.	2F/	-mi-	-mi-	2d\	Con-	-(us)	4a\	-feſ-	pru-
!	!	!	!	!	!	!	!	!	!	!	!	!LO:TX:t=P:problem=kreska pseudotaktowa	!	!
.	.	.	.	.	.	.	.	.	.	.	.	4g/	.	.
*2\right	*	*	*	*	*	*	*	*	*	*	*	*	*	*
2D\	-ſor	pru-	2D/	-ſor	-dens	2A\	-ni	-lis	4d\	-feſ-	pru-	4f/	.	.
.	.	.	.	.	.	.	.	.	4c\	.	.	4e/	.	.
!LO:TX:t=P:problem=kreska pseudotaktowa	!	!	!LO:TX:t=P:problem=kreska pseudotaktowa	!	!	!LO:TX:t=P:problem=kreska pseudotaktowa	!	!	!	!	!	!	!	!LO:MO:mod=-dens
2G\	Do-	-dens	2G\	Do-	.	2B\	co-	pu-	4B/	.	.	4d/	.	-des
!	!	!	!	!	!	!	!	!	!LO:TX:t=P:problem=kreska pseudotaktowa	!	!	!LO:TX:t=P:problem=kreska pseudotaktowa	!	!
.	.	.	.	.	.	.	.	.	4A/	.	.	[<4g/	-ſor	hu-
=4-	=4-	=4-	=4-	=4-	=4-	=4-	=4-	=4-	=4-	=4-	=4-	=4-	=4-	=4-
2E\	-mi-	hu-	2E\	-mi-	hu-	1c	-len-	-di-	2G/	-ſor	-dens	4g/]	.	.
.	.	.	.	.	.	.	.	.	.	.	.	4f/	Do-	.
!LO:TX:t=P:problem=kreska pseudotaktowa	!	!	!LO:TX:t=P:problem=kreska pseudotaktowa	!	!	!	!	!	!LO:TX:t=P:problem=kreska pseudotaktowa	!	!	!	!	!
2C/	-ni	-mi-	2C/	-ni	-mi-	.	.	.	2g\	Do-	hu-	4e/	.	.
!	!	!	!	!	!	!	!	!	!	!	!	!LO:TX:t=P:problem=kreska pseudotaktowa	!	!
.	.	.	.	.	.	.	.	.	.	.	.	4d/	-mi-	-mi-
!	!	!	!	!	!	!LO:TX:t=P:problem=kreska pseudotaktowa	!	!	!	!	!	!	!	!
4E\	co-	-lis	4E\	co-	-lis	1G	-tes	-c(us)	2e\	-mi-	-mi-	2c/	-ni	-lis
4D\	.	pu-	4D\	.	.	.	.	.	.	.	.	.	.	.
!	!	!	!	!	!	!	!	!	!LO:TX:t=P:problem=kreska pseudotaktowa	!	!	!	!LO:MO:mod=co-	!
4E\	.	.	4E\	.	pu-	.	.	.	2e\	-ni	-lis	1cc\	Co-	pu-
!	!	!	!LO:TX:t=P:problem=kreska pseudotaktowa	!	!	!	!	!	!	!	!	!	!	!
4F\	.	.	4F\	.	.	.	.	.	.	.	.	.	.	.
=5-	=5-	=5-	=5-	=5-	=5-	=5-	=5-	=5-	=5-	=5-	=5-	=5-	=5-	=5-
!	!	!	!	!	!	!LO:TX:t=P:problem=kreska pseudotaktowa	!	!	!	!	!	!	!	!
2G\	-len-	-di-	2G\	-len-	-di-	1r	.	.	2d\	co-	pu-	.	.	.
!	!	!LO:MO:null:mod=.	!	!LO:MO:null:mod=.	!	!	!	!	!LO:TX:t=P:problem=kreska pseudotaktowa	!	!	!LO:TX:t=P:problem=kreska pseudotaktowa	!	!
2GG/	.	-cus	2GG/	-tes	.	.	.	.	2d\	-len-	-di-	2b\	-len-	-di-
!LO:TX:t=P:problem=kreska pseudotaktowa	!	!LO:MO:null:mod=-cus	!LO:TX:t=P:problem=kreska pseudotaktowa	!LO:MO:null:mod=-tes	!	!	!LO:MO:mod=Quem	!	!LO:TX:t=P:problem=kreska pseudotaktowa	!	!LO:MO:mod=-cus	!LO:TX:t=P:problem=kreska pseudotaktowa	!	!LO:MO:mod=-cus
1C	-tes	.	1C	.	-cus	1c	Que(m)	ſo-	1e	-tes.	-c(us)	1cc	-tes	-c(us)
=6-	=6-	=6-	=6-	=6-	=6-	=6-	=6-	=6-	=6-	=6-	=6-	=6-	=6-	=6-
!LO:TX:t=P:problem=kreska pseudotaktowa	!	!	!LO:TX:t=P:problem=kreska pseudotaktowa	!	!	!	!	!	!	!	!	!	!	!
00r	.	.	00r	.	.	2A/	pi-	-bri-	1r	.	.	00rb	.	.
!	!	!	!	!	!	!LO:TX:t=P:problem=kreska pseudotaktowa	!	!LO:MO:mod=-am	!	!	!	!	!	!
.	.	.	.	.	.	2c\	-e	-a(m)	.	.	.	.	.	.
!	!	!	!	!	!	!	!	!	!	!LO:MO:mod=Quem	!LO:MO:null:mod=so-	!	!	!
.	.	.	.	.	.	1B	lau-	du-	1g	Que(m)	.	.	.	.
=7-	=7-	=7-	=7-	=7-	=7-	=7-	=7-	=7-	=7-	=7-	=7-	=7-	=7-	=7-
!	!	!	!	!	!	!	!	!	!	!	!LO:MO:mod=-bri-	!	!	!
.	.	.	.	.	.	2c\	.	.	2e\	pi-	ſo-	.	.	.
!	!	!	!	!	!	!LO:TX:t=P:problem=kreska pseudotaktowa	!	!	!LO:TX:t=P:problem=kreska pseudotaktowa	!	!LO:MO:mod=-am	!	!	!
.	.	.	.	.	.	2B\	.	.	2g\	-e	-bri-	.	.	.
!	!	!	!	!	!	!LO:TX:t=P:problem=kreska pseudotaktowa	!	!	!	!	!LO:MO:mod=du-	!	!	!
.	.	.	.	.	.	1A	-dant	-xit	4e\	lau-	-a(m)	.	.	.
.	.	.	.	.	.	.	.	.	4d\	.	.	.	.	.
!	!	!	!	!	!	!	!	!	!	!	!LO:MO:null:mod=.	!	!	!
.	.	.	.	.	.	.	.	.	4e\	.	du-	.	.	.
!	!	!	!	!	!	!	!	!	!LO:TX:a:t=P:problem=# above	!	!	!	!	!
!	!	!	!	!	!	!	!	!	!LO:TX:t=P:problem=kreska pseudotaktowa	!	!	!	!	!
.	.	.	.	.	.	.	.	.	4f#X\	.	.	.	.	.
=8-	=8-	=8-	=8-	=8-	=8-	=8-	=8-	=8-	=8-	=8-	=8-	=8-	=8-	=8-
1G	Quem	ſo-	1G	Quem	ſo-	2G/	.	.	4g\	.	.	00rb	.	.
.	.	.	.	.	.	.	.	.	4d\	.	.	.	.	.
.	.	.	.	.	.	4d\	po-	ſi-	1g	.	.	.	.	.
!	!	!	!	!	!	!LO:TX:t=P:problem=kreska pseudotaktowa	!	!	!	!	!	!	!	!
.	.	.	.	.	.	4d\	-pu-	-ne	.	.	.	.	.	.
2E\	pi-	-bri-	2E\	.	-bri-	2c\	-li	la-	.	.	.	.	.	.
!LO:TX:t=P:problem=kreska pseudotaktowa	!	!	!LO:TX:t=P:problem=kreska pseudotaktowa	!	!	!LO:TX:t=P:problem=kreska pseudotaktowa	!	!	!LO:TX:t=P:problem=kreska pseudotaktowa	!	!	!	!	!
2G\	-e	-am	2G\	pi-	-am	2B\	per	-be	2g\	-dant	-xit	.	.	.
!LO:LB:g=original	!	!	!	!	!	!LO:LB:g=original	!	!	!	!	!	!	!	!
=9-	=9-	=9-	=9-	=9-	=9-	=9-	=9-	=9-	=9-	=9-	=9-	=9-	=9-	=9-
!LO:TX:t=P:problem=kreska pseudotaktowa	!	!	!LO:TX:t=P:problem=kreska pseudotaktowa	!	!	!	!	!LO:MO:mod=vi-	!	!LO:MO:null:mod=lau-	!	!	!	!
1F#X	lau-	du-	1F#X	-e	du-	4A\	or-	Vi-	4d\	.	du-	.	.	.
!	!	!	!	!	!	!	!	!	!	!LO:MO:null:mod=.	!	!	!	!
.	.	.	.	.	.	4B\	.	.	4e\	lau-	.	.	.	.
.	.	.	.	.	.	4c\	.	.	4d\	.	.	.	.	.
!	!	!	!	!	!	!LO:TX:t=P:problem=kreska pseudotaktowa	!	!	!LO:TX:t=P:problem=kreska pseudotaktowa	!	!	!	!	!
.	.	.	.	.	.	4A\	.	.	4c\	.	.	.	.	.
2G\	.	.	2G\	lau-	.	4B\	.	.	4B/	.	.	.	.	.
.	.	.	.	.	.	4c\	.	.	4G/	.	.	.	.	.
!	!	!	!	!	!	!	!	!	!LO:LB:g=original	!	!	!	!	!
!	!	!	!LO:TX:t=P:problem=kreska pseudotaktowa	!	!	!	!	!	!LO:TX:t=P:problem=kreska pseudotaktowa	!	!	!	!	!
2F#X\	.	.	2F#X\	.	.	1d\	.	.	2d\	.	.	.	.	.
=10-	=10-	=10-	=10-	=10-	=10-	=10-	=10-	=10-	=10-	=10-	=10-	=10-	=10-	=10-
!LO:TX:t=P:problem=kreska pseudotaktowa	!	!	!LO:TX:t=P:problem=kreska pseudotaktowa	!	!	!	!	!	!	!	!	!LO:TX:t=P:problem=kreska pseudotaktowa	!	!
1E	.	.	1E	.	.	.	.	.	1g	.	.	0rg	.	.
!	!	!	!	!	!	!LO:TX:t=P:problem=kreska pseudotaktowa	!	!	!	!	!	!	!	!
!	!	!	!	!	!	!LO:TX:a:t=P:problem=# above	!	!	!	!	!	!	!	!
.	.	.	.	.	.	2c#X\	.	-ta(m)	.	.	.	.	.	.
2D,<\	-dant	-xit	2D/	-dant	-xit	2d\	-bem	.	2f#X\	-dant	-xit	.	.	.
*	*	*	*	*	*	*	*ij	*	*	*	*	*	*	*
!	!	!	!	!	!	!LO:TX:t=P:problem=kreska pseudotaktowa	!	!	!	!	!	!	!	!
1E\	po-	ſi-	1E\	po-	ſi-	2G/	po-	ſo-	2.e\	po-	ſi-	.	.	.
=11-	=11-	=11-	=11-	=11-	=11-	=11-	=11-	=11-	=11-	=11-	=11-	=11-	=11-	=11-
!	!	!	!	!	!	!	!	!	!	!	!	!	!LO:MO:mod=Quem	!
.	.	.	.	.	.	2E/	.	-bri-	.	.	.	1cc	quem	ſo-
.	.	.	.	.	.	.	.	.	4f\ny	.	.	.	.	.
*	*	*	*custos:F#	*	*	*	*	*	*	*	*	*	*	*
!LO:TX:t=P:problem=kreska pseudotaktowa	!	!	!	!	!	!	!	!	!	!	!	!	!	!
!	!	!	!LO:TX:t=P:problem=kreska pseudotaktowa	!	!	!	!	!LO:MO:mod=-am	!	!	!	!	!	!
2E\	-pu-	-ne	2E\	-pu-	-ne	2G/	.	-a(m)	4g\	.	.	.	.	.
!	!	!	!	!	!	!	!	!	!LO:TX:t=P:problem=kreska pseudotaktowa	!	!	!	!	!
.	.	.	.	.	.	.	.	.	4e\	.	-ne	.	.	.
!	!	!	!LO:LB:g=original	!	!	!	!	!	!	!	!	!	!	!
2F#X,<\	-li	la-	2F#X\	-li	la-	2.F#X/	-pu-	du-	2a\	.	.	2a\	pi-	-bri-
!	!	!	!LO:TX:t=P:problem=kreska pseudotaktowa	!	!	!	!	!	!LO:TX:t=P:problem=kreska pseudotaktowa	!	!	!LO:TX:t=P:problem=kreska pseudotaktowa	!	!LO:MO:mod=-am
2F#\	per	-be	2F#\	per	-be	.	.	.	(<2.d\	.	ſi-	2cc\	-e	-a(m)
!	!	!	!	!	!	!LO:TX:t=P:problem=kreska pseudotaktowa	!	!	!	!	!	!	!	!
.	.	.	.	.	.	4D/	.	.	.	.	.	.	.	.
=12-	=12-	=12-	=12-	=12-	=12-	=12-	=12-	=12-	=12-	=12-	=12-	=12-	=12-	=12-
!	!	!	!	!	!	!	!	!	!	!	!	!LO:TX:t=P:problem=kreska pseudotaktowa	!	!
4G\	or-	vi-	4G\	.	.	2.G/	-li	.	.	.	.	1b	lau-	du-
4F\ny	.	.	4F\ny	or-	vi-	.	.	.	4e\)	.	.	.	.	.
4E\	.	.	4E\	.	.	.	.	.	4f#X\	.	.	.	.	.
!	!	!	!LO:TX:t=P:problem=kreska pseudotaktowa	!	!	!LO:TX:t=P:problem=kreska pseudotaktowa	!	!	!LO:TX:t=P:problem=kreska pseudotaktowa	!	!	!	!	!
4D\	.	.	4D\	.	.	4F/ny	per	.	4d\	.	.	.	.	.
1C	.	.	1C	.	.	2E/	or-	.	2.g\	.	-ne	2cc\	.	.
!	!	!	!	!	!	!LO:TX:t=P:problem=kreska pseudotaktowa	!	!	!	!	!	!LO:TX:t=P:problem=kreska pseudotaktowa	!	!
.	.	.	.	.	.	2E/	-bem	-xit	.	.	.	2b\	.	.
!	!	!	!	!	!	!	!	!	!LO:TX:t=P:problem=kreska pseudotaktowa	!	!	!	!	!
.	.	.	.	.	.	.	.	.	4g\	-pu-	.	.	.	.
!	!	!	!	!	!	!	!	!	!	!	!	!LO:LB:g=original	!	!
=13-	=13-	=13-	=13-	=13-	=13-	=13-	=13-	=13-	=13-	=13-	=13-	=13-	=13-	=13-
!LO:TX:t=P:problem=kreska pseudotaktowa	!	!	!LO:TX:t=P:problem=kreska pseudotaktowa	!	!	!	!	!	!	!	!	!	!	!
1D	.	.	1D	.	.	2.A/	po-	ſi-	2f#X\	-li	la-	1a	.	.
.	.	.	.	.	.	.	.	.	2f#\	per	-be	.	.	.
!	!	!	!	!	!	!LO:TX:t=P:problem=kreska pseudotaktowa	!	!	!	!	!	!	!	!
.	.	.	.	.	.	4F/	-pu-	-ne	.	.	.	.	.	.
!	!	!	!	!	!	!	!	!	!LO:TX:t=P:problem=kreska pseudotaktowa	!	!LO:MO:mod=vi-	!	!	!
2E\	.	.	2E/	.	.	2G/	-li	la-	1e	or-	Vi-	2g,</	-dant	-xit
!	!	!	!	!	!	!LO:TX:t=P:problem=kreska pseudotaktowa	!	!	!	!	!	!LO:TX:t=P:problem=kreska pseudotaktowa	!	!
2C/	.	.	2C/	.	.	2c\ny	per	-be	.	.	.	2.a\	po-	ſi-
=14-	=14-	=14-	=14-	=14-	=14-	=14-	=14-	=14-	=14-	=14-	=14-	=14-	=14-	=14-
!	!	!	!	!	!	!	!	!LO:MO:mod=vi-	!	!	!	!	!	!
0D	.	.	0D	.	.	2A/	or-	Vi-	2f#X\	.	.	.	.	.
.	.	.	.	.	.	.	.	.	.	.	.	4a\	-pu-	-ne
!	!	!	!	!	!	!LO:TX:t=P:problem=kreska pseudotaktowa	!	!LO:MO:mod=-tam	!	!	!	!	!	!
.	.	.	.	.	.	2G/	-bem	-ra(m)	1g	.	.	4b\	-li	la-
*	*	*	*	*	*	*	*Xij	*	*	*	*	*	*	*
!	!	!	!	!	!	!	!	!	!	!	!	!LO:TX:t=P:problem=kreska pseudotaktowa	!	!
.	.	.	.	.	.	.	.	.	.	.	.	4b\	per	-be
.	.	.	.	.	.	2r	.	.	.	.	.	1a	or-	vi-
!	!	!	!	!	!	!LO:TX:t=P:problem=kreska pseudotaktowa	!	!	!LO:TX:t=P:problem=kreska pseudotaktowa	!	!	!	!	!
!	!	!	!	!	!	!	!	!	!LO:TX:a:t=P:problem=# above	!	!	!	!	!
.	.	.	.	.	.	2d\	hac	do-	2f#X\	.	.	.	.	.
=15-	=15-	=15-	=15-	=15-	=15-	=15-	=15-	=15-	=15-	=15-	=15-	=15-	=15-	=15-
!LO:TX:t=P:problem=kreska pseudotaktowa	!	!	!	!	!	!	!	!	!	!	!	!	!	!
!LO:TX:a:t=2:mod=	!	!	!LO:TX:t=P:problem=kreska pseudotaktowa	!	!	!	!	!	!LO:TX:t=P:problem=kreska pseudotaktowa	!	!LO:MO:mod=-tam	!	!LO:MO:mod=-bem	!LO:MO:mod=-tam
0GG	-bem.	-tam	0GG	-bem	-tam	2d\	di-	-nec	1g	-bem	-ram	2b\	-be(m)	-ta(m)
!	!	!	!	!	!	!LO:TX:t=P:problem=kreska pseudotaktowa	!	!	!	!	!	!LO:TX:t=P:problem=kreska pseudotaktowa	!	!
.	.	.	.	.	.	2d\	-e	hu-	.	.	.	2dd\	hac	do-
.	.	.	.	.	.	4G/	lae-	-ma-	0r	.	.	2dd\	di-	-nec
.	.	.	.	.	.	4A\	.	.	.	.	.	.	.	.
!	!	!	!	!	!	!	!	!	!	!	!	!LO:TX:t=P:problem=kreska pseudotaktowa	!	!
.	.	.	.	.	.	4B\	.	.	.	.	.	2dd\	-e	hu-
!	!	!	!	!	!	!LO:TX:t=P:problem=kreska pseudotaktowa	!	!	!	!	!	!	!	!
.	.	.	.	.	.	4c\	.	.	.	.	.	.	.	.
=16-	=16-	=16-	=16-	=16-	=16-	=16-	=16-	=16-	=16-	=16-	=16-	=16-	=16-	=16-
2r	.	.	2r	.	.	2.d\	.	.	.	.	.	4g\	lae-	-ma-
.	.	.	.	.	.	.	.	.	.	.	.	4a\	.	.
!	!	!	!LO:TX:t=P:problem=kreska pseudotaktowa	!	!	!	!	!	!	!	!	!	!	!
2G\	hac	do-	2G\	hac	do-	.	.	.	.	.	.	4b\	.	.
!	!	!	!	!	!	!	!	!	!	!	!	!LO:TX:t=P:problem=kreska pseudotaktowa	!	!
.	.	.	.	.	.	4c\	.	.	.	.	.	4cc\	.	.
!	!	!	!	!	!	!	!	!	!LO:TX:t=P:problem=kreska pseudotaktowa	!	!	!	!	!
!	!	!	!	!	!	!LO:LB:g=original	!	!	!	!	!	!	!	!
2G\	di-	.	2G\	di-	-nec	4B\	.	.	1r	.	.	4dd\	.	.
.	.	.	.	.	.	4A\	.	.	.	.	.	4cc\	.	.
!LO:TX:t=P:problem=kreska pseudotaktowa	!	!	!LO:TX:t=P:problem=kreska pseudotaktowa	!	!	!	!	!	!	!	!	!	!	!
2G\	-e	-nec	2G\	-e	hu-	4B\	.	.	.	.	.	4dd\	.	.
!	!	!	!	!	!	!LO:TX:t=P:problem=kreska pseudotaktowa	!	!	!	!	!	!LO:TX:t=P:problem=kreska pseudotaktowa	!	!
.	.	.	.	.	.	4G/	.	.	.	.	.	4b\	.	.
=17-	=17-	=17-	=17-	=17-	=17-	=17-	=17-	=17-	=17-	=17-	=17-	=17-	=17-	=17-
4C/	lae-	hu-	4C/	lae-	-ma-	1c	.	.	2re	.	.	1ee	.	.
4D/	.	-ma-	4D/	.	.	.	.	.	.	.	.	.	.	.
!	!	!	!	!	!	!	!	!	!LO:TX:t=P:problem=kreska pseudotaktowa	!	!	!	!	!
4E/	.	.	4E\	.	.	.	.	.	2g\	hac	do-	.	.	.
!	!	!	!LO:TX:t=P:problem=kreska pseudotaktowa	!	!	!	!	!	!	!	!	!	!	!
4F/	.	.	4F\	.	.	.	.	.	.	.	.	.	.	.
!	!	!	!	!	!	!LO:TX:t=P:problem=kreska pseudotaktowa	!	!	!	!	!	!LO:TX:t=P:problem=kreska pseudotaktowa	!	!
4G\	.	.	4G\	.	.	1B	.	.	2g\	di-	-nec	1dd	.	.
4F\	.	.	4F\	.	.	.	.	.	.	.	.	.	.	.
!	!	!	!	!	!	!	!	!	!LO:TX:t=P:problem=kreska pseudotaktowa	!	!	!	!	!
4G\	.	.	4G\	.	.	.	.	.	2g\	-e	hu-	.	.	.
!	!	!	!LO:TX:t=P:problem=kreska pseudotaktowa	!	!	!	!	!	!	!	!	!	!	!
4E\	.	.	4E\	.	.	.	.	.	.	.	.	.	.	.
=18-	=18-	=18-	=18-	=18-	=18-	=18-	=18-	=18-	=18-	=18-	=18-	=18-	=18-	=18-
!	!	!	!	!	!	!	!	!	!	!	!	!	!LO:MO:mod=-tus	!
2A\	.	.	2A\	.	.	1A	.	.	4c\	lae-	-ma-	2cc,<\	-t(us)	.
.	.	.	.	.	.	.	.	.	4d\	.	.	.	.	.
!	!	!	!	!	!	!	!	!	!	!	!	!LO:TX:t=P:problem=kreska pseudotaktowa	!	!
4G\	.	.	4G\	.	.	.	.	.	4e\	.	.	2g/	lae-	-nos
!LO:TX:t=P:problem=kreska pseudotaktowa	!	!	!LO:TX:t=P:problem=kreska pseudotaktowa	!	!	!	!	!	!LO:TX:t=P:problem=kreska pseudotaktowa	!	!	!	!	!
4F\	.	.	4F\	.	.	.	.	.	4f\ny	.	.	.	.	.
!LO:LB:g=original	!	!	!	!	!	!	!	!	!	!	!	!	!	!
4E\	.	.	4E\	.	.	1G	-tus	-nos	4g\	.	.	2.cc\	.	hu-
4D\	.	.	4D\	.	.	.	.	.	4f\	.	.	.	.	.
4E\	.	.	4E\	.	.	.	.	.	4g\	.	.	.	.	.
!	!	!	!LO:TX:t=P:problem=kreska pseudotaktowa	!	!	!	!	!	!LO:TX:t=P:problem=kreska pseudotaktowa	!	!	!LO:TX:t=P:problem=kreska pseudotaktowa	!	!
4C/	.	.	4C\	.	.	.	.	.	4e\	.	.	4b\	.	.
!	!	!	!	!	!	!	!	!	!	!	!	!LO:LB:g=original	!	!
=19-	=19-	=19-	=19-	=19-	=19-	=19-	=19-	=19-	=19-	=19-	=19-	=19-	=19-	=19-
!	!	!	!	!	!	!	!	!	!LO:TX:t=P:problem=nuta niewidoczna - brak fragmentu karty	!	!	!	!	!
!	!	!	!	!	!	!	!	!	!LO:SIC:s=2f	!	!LO:MO:null:mod=-nos	!	!	!
2F\	.	.	2F\	.	-nos	2r	.	.	2r\yy	.	.	2a\	.	-ma-
!LO:TX:t=P:problem=kreska pseudotaktowa	!LO:MO:null:mod=.	!	!LO:TX:t=P:problem=kreska pseudotaktowa	!	!	!LO:TX:t=P:problem=kreska pseudotaktowa	!	!	!LO:TX:t=P:problem=kreska pseudotaktowa	!LO:MO:mod=-tus	!	!LO:TX:t=P:problem=kreska pseudotaktowa	!	!
!	!	!	!	!	!	!LO:SIC:s=2.c	!	!	!	!	!LO:MO:mod=hu-	!	!	!
2E\	-tus	.	2E/	-tus	hu-	[<2.c\	Me-	a-	2g\	-t(us)	-nos	2cc\	.	.
!	!	!	!	!	!	!	!	!	!	!	!LO:MO:mod=-ma-	!	!	!
2D\	.	.	2D/	lae-	-ma-	.	.	.	2f-X\	lae-	hu-	1dd	.	.
!	!	!	!	!	!	!LO:SIC:s=4c	!	!	!	!	!	!	!	!
.	.	.	.	.	.	4c\]	-ru-	-ni-	.	.	.	.	.	.
!	!	!	!LO:TX:t=P:problem=kreska pseudotaktowa	!	!	!	!LO:MO:null:mod=-it	!	!	!LO:MO:null:mod=.	!LO:MO:null:mod=.	!	!	!
2G\	.	.	2G\	.	.	4B\	.	-ma-	2d\	-t(us)	-ma-	.	.	.
!	!	!	!	!	!	!	!LO:MO:mod=be-	!	!	!	!	!	!	!
.	.	.	.	.	.	4B\	-it	-vit	.	.	.	.	.	.
=20-	=20-	=20-	=20-	=20-	=20-	=20-	=20-	=20-	=20-	=20-	=20-	=20-	=20-	=20-
*	*	*	*custos:c	*	*	*	*	*	*	*	*	*	*	*
!	!LO:MO:null:mod=-tus	!	!	!	!	!	!LO:MO:mod=-a-	!LO:MO:null:mod=au-	!LO:TX:t=P:problem=kreska pseudotaktowa	!LO:MO:null:mod=-tus	!	!LO:TX:t=P:problem=kreska pseudotaktowa	!LO:MO:mod=-tus	!
2C,</	.	-nos	2C/	-tus	-nos	2c\	be-	.	1e	.	-nos	1cc	-t(us)	-nos
!	!	!	!	!	!	!LO:TX:t=P:problem=kreska pseudotaktowa	!	!	!	!	!	!	!	!
!	!LO:MO:mod=Me-	!	!LO:LB:g=original	!LO:MO:mod=Me-	!	!	!LO:MO:null:mod=.	!LO:MO:null:mod=.	!	!	!	!	!	!
2.c\	me-	a-	2.c\	me-	a-	2e\	-a-	au-	.	.	.	.	.	.
!	!	!	!	!	!	!	!LO:MO:null:mod=.	!	!	!	!	!LO:TX:t=P:problem=kreska pseudotaktowa	!	!
.	.	.	.	.	.	1d	-tas	.	2re	.	.	1rdd	.	.
4c\	-ru-	-ni-	4c\	-ru-	-ni-	.	.	.	.	.	.	.	.	.
4B\	-it	-ma-	4B\	-it	-ma-	.	.	.	2.g\	Me-	a-	.	.	.
!LO:TX:t=P:problem=kreska pseudotaktowa	!	!	!LO:TX:t=P:problem=kreska pseudotaktowa	!	!	!	!	!	!	!	!	!	!	!
4B\	be-	-vit	4A\	be-	-vit	.	.	.	.	.	.	.	.	.
!LO:LB:g=original	!	!	!	!	!	!	!	!	!	!	!	!	!	!
=21-	=21-	=21-	=21-	=21-	=21-	=21-	=21-	=21-	=21-	=21-	=21-	=21-	=21-	=21-
!	!	!	!LO:TX:t=P:problem=kreska pseudotaktowa	!	!	!LO:TX:t=P:problem=kreska pseudotaktowa	!LO:MO:null:mod=-tas	!	!	!	!	!	!	!
1A	-a-	au-	1A	-a-	au-	1c	.	-rae	.	.	.	2rcc	.	.
.	.	.	.	.	.	.	.	.	4g\	-ru-	-ni-	.	.	.
!	!	!	!	!	!	!	!	!	!	!	!	!LO:TX:t=P:problem=kreska pseudotaktowa	!LO:MO:mod=Me-	!
!	!	!	!	!	!	!	!	!	!	!	!	!LO:MO:mod=2.cc	!	!
.	.	.	.	.	.	.	.	.	4f\ny	-it	-ma-	2cc\	me-	a-
!	!	!	!	!	!	!	!	!	!LO:TX:t=P:problem=kreska pseudotaktowa	!	!	!	!	!
.	.	.	.	.	.	.	.	.	4f\	be-	-vit	.	.	.
!	!	!	!	!	!	!	!	!	!	!	!	!LO:LB:g=original	!	!
!LO:TX:t=P:problem=kreska pseudotaktowa	!	!	!LO:TX:t=P:problem=kreska pseudotaktowa	!	!	!	!	!	!LO:TX:t=P:problem=kreska pseudotaktowa	!	!	!	!	!
!	!	!	!	!	!	!	!	!	!	!	!	!LO:MO:null:mod=.	!LO:MO:null:mod=.	!LO:MO:null:mod=.
1G	-tas	-rae	1G	-tas	-rae	1r	.	.	1g	-a-	au-	4cc\	-ru-	-ni-
!	!	!	!	!	!	!	!	!	!	!	!	!	!LO:MO:mod=-ru-	!LO:MO:mod=-ni-
.	.	.	.	.	.	.	.	.	.	.	.	4cc\	-it	-ma-
!	!	!	!	!	!	!	!	!	!	!	!	!	!LO:MO:mod=-it	!LO:MO:null:mod=-ma-
.	.	.	.	.	.	.	.	.	.	.	.	4b\	be-	.
!	!	!	!	!	!	!	!	!	!	!	!	!	!LO:MO:mod=be-	!
.	.	.	.	.	.	.	.	.	.	.	.	4b\	-a-	-vit
=22-	=22-	=22-	=22-	=22-	=22-	=22-	=22-	=22-	=22-	=22-	=22-	=22-	=22-	=22-
!	!	!	!	!	!	!	!	!	!LO:TX:t=P:problem=kreska pseudotaktowa	!	!LO:MO:mod=-rae	!LO:TX:t=P:problem=kreska pseudotaktowa	!	!
!	!	!LO:MO:null:mod=spi-	!	!LO:MO:null:mod=scan-	!LO:MO:null:mod=spi-	!	!	!	!	!	!	!	!LO:MO:mod=-a-	!
4C/	ſcan-	.	4C/	.	.	2r	.	.	1g	-tas	-r(ae)	1cc	-taſ	au-
!	!	!	!	!LO:MO:null:mod=.	!	!	!	!	!	!	!	!	!	!
4D/	.	.	4D/	ſcan-	.	.	.	.	.	.	.	.	.	.
!	!	!LO:MO:null:mod=.	!	!	!LO:MO:null:mod=.	!	!	!	!	!	!	!	!	!
4E/	.	ſpi-	4E\	.	ſpi-	4G/	ſcan-	ſpi-	.	.	.	.	.	.
!	!	!	!LO:TX:t=P:problem=kreska pseudotaktowa	!	!	!LO:TX:t=P:problem=kreska pseudotaktowa	!	!LO:MO:null:mod=.	!	!	!	!	!	!
4F/	.	.	4F\	.	.	4A\	.	-ri-	.	.	.	.	.	.
!	!	!	!	!	!	!	!	!	!	!	!LO:MO:null:mod=spi-	!	!LO:MO:null:mod=-tas	!LO:MO:mod=-rae
4G\	.	.	4G\	.	.	4B\	.	.	4G/	ſcan-	.	2b\	.	-re
!	!	!LO:MO:null:mod=-ri-	!	!	!	!	!	!LO:MO:null:mod=.	!	!	!	!	!	!
4G\	-de-	.	4G\	-de-	-ri-	4c\	.	-tus	4A/	.	.	.	.	.
!LO:TX:t=P:problem=kreska pseudotaktowa	!	!LO:MO:null:mod=-tus	!LO:TX:t=P:problem=kreska pseudotaktowa	!	!LO:MO:mod=-tus	!	!LO:MO:null:mod=-de-	!LO:MO:null:mod=-ri-	!	!	!LO:MO:null:mod=.	!	!	!LO:MO:null:mod=spi-
2G\	-re	.	2G\	-re	-(tus)	4d\	.	.	4B/	.	ſpi-	4g\	ſcan-	.
!	!	!	!	!	!	!LO:TX:t=P:problem=kreska pseudotaktowa	!LO:MO:mod=-re	!LO:MO:null:mod=-tus	!LO:TX:t=P:problem=kreska pseudotaktowa	!	!	!LO:TX:t=P:problem=kreska pseudotaktowa	!	!
.	.	.	.	.	.	4d\	-de-	.	4c/	.	.	4a\	.	.
=23-	=23-	=23-	=23-	=23-	=23-	=23-	=23-	=23-	=23-	=23-	=23-	=23-	=23-	=23-
!	!LO:MO:null:mod=scan-	!LO:MO:null:mod=spi-	!	!LO:MO:null:mod=scan-	!	!	!	!	!	!	!	!	!	!LO:MO:null:mod=.
4GG/	.	.	4GG/	.	ſpi-	2d\	-re	.	4d\	.	.	4b\	.	ſpi-
!	!LO:MO:null:mod=.	!	!	!LO:MO:null:mod=.	!	!	!	!	!	!	!	!	!	!
4AA/	ſcan-	.	4AA/	ſcan-	.	.	.	.	4d\	-de-	-ri-	4cc\	.	.
*	*	*	*	*	*	*	*ij	*	*	*	*	*	*	*
!	!	!	!	!	!	!	!	!LO:MO:null:mod=spi-	!LO:TX:t=P:problem=kreska pseudotaktowa	!	!	!	!	!
4BB/	.	.	4BB/	.	.	4D/	ſcan-	.	2d\	-re	-tus	4dd\	.	.
!	!	!	!LO:TX:t=P:problem=kreska pseudotaktowa	!	!	!LO:TX:t=P:problem=kreska pseudotaktowa	!	!LO:MO:null:mod=.	!	!	!	!LO:TX:t=P:problem=kreska pseudotaktowa	!	!
4C/	.	.	4C/	.	.	4E/	.	ſpi-	.	.	.	4dd\	-de-	-ri-
!	!	!	!	!	!	!	!	!	!	!	!LO:MO:null:mod=spi-	!	!	!LO:MO:mod=-tus
2.D\	.	.	2.D/	.	.	4F#X/	.	.	4d\	ſcan-	.	2dd\	-re	-t(us)
.	.	.	.	.	.	4G/	.	.	4e\	.	.	.	.	.
!	!	!	!	!	!	!	!	!	!LO:TX:a:t=P:problem=# above	!	!LO:MO:null:mod=.	!	!	!
.	.	.	.	.	.	4A/	.	.	4f#X\	.	ſpi-	4d/	ſcan-	ſpi-
!LO:TX:t=P:problem=kreska pseudotaktowa	!	!	!LO:TX:t=P:problem=kreska pseudotaktowa	!	!LO:MO:null:mod=-ri-	!LO:TX:t=P:problem=kreska pseudotaktowa	!	!	!LO:TX:t=P:problem=kreska pseudotaktowa	!	!	!LO:TX:t=P:problem=kreska pseudotaktowa	!	!
4D\	-de-	-ri-	4D/	-de-	.	4A/	-de-	-ri-	4g\	.	.	4e/	.	.
=24-	=24-	=24-	=24-	=24-	=24-	=24-	=24-	=24-	=24-	=24-	=24-	=24-	=24-	=24-
!	!	!	!	!	!LO:MO:mod=-tus	!	!	!	!	!	!	!	!	!
2D\	-re	-tuſ	2D/	-re	-ri-	2A/	-re	-tus	4a\	.	.	4f#X/	.	.
*	*	*	*	*	*	*	*Xij	*	*	*	*	*	*	*
!	!	!	!	!	!	!	!	!	!	!	!LO:MO:null:mod=-ri-	!	!	!
.	.	.	.	.	.	.	.	.	4a\	-de-	.	4d/	.	.
!	!	!LO:MO:null:mod=ar-	!	!LO:MO:null:mod=se-	!LO:MO:mod=ar-	!	!	!LO:MO:null:mod=ar-	!LO:TX:t=P:problem=kreska pseudotaktowa	!	!LO:MO:mod=-tus	!	!	!
1E	ſe-	.	1E	.	-tuſ	1G	ſe-	.	2e\	-re	-ri-	4g\	.	.
!	!	!	!	!	!	!	!	!	!	!	!	!LO:TX:t=P:problem=kreska pseudotaktowa	!	!
.	.	.	.	.	.	.	.	.	.	.	.	4a\	.	.
!	!	!	!	!	!	!	!	!	!	!	!LO:MO:mod=ar-	!	!	!
.	.	.	.	.	.	.	.	.	2g\	ſe-	-tus	4b\	.	.
.	.	.	.	.	.	.	.	.	.	.	.	4cc\	.	.
!LO:TX:t=P:problem=kreska pseudotaktowa	!	!	!LO:TX:t=P:problem=kreska pseudotaktowa	!	!	!	!	!	!LO:TX:t=P:problem=kreska pseudotaktowa	!	!	!	!	!
!	!	!LO:MO:null:mod=.	!	!LO:MO:null:mod=.	!LO:MO:null:mod=.	!	!	!LO:MO:null:mod=.	!LO:TX:a:t=P:problem=# above	!	!LO:MO:null:mod=.	!	!	!
2D\	.	ar-	2D/	ſe-	ar-	4A\	.	ar-	2f#X\	.	ar-	4dd\	.	.
!	!	!	!	!	!	!LO:TX:t=P:problem=kreska pseudotaktowa	!	!	!	!	!	!LO:TX:t=P:problem=kreska pseudotaktowa	!	!
.	.	.	.	.	.	4B\	.	.	.	.	.	4b\	.	.
=25-	=25-	=25-	=25-	=25-	=25-	=25-	=25-	=25-	=25-	=25-	=25-	=25-	=25-	=25-
1C	.	.	1C	.	.	4c\	.	.	2e\	.	.	2ee\	.	.
*	*	*	*	*	*	*custos:c	*	*	*	*	*	*	*	*
.	.	.	.	.	.	4G\	.	.	.	.	.	.	.	.
!	!	!	!	!	!	!LO:LB:g=original	!	!	!	!	!	!	!	!
.	.	.	.	.	.	1c	.	.	4a\	.	.	4ee\	-de-	-ri-
!	!	!	!	!	!	!	!	!	!LO:TX:t=P:problem=kreska pseudotaktowa	!	!	!LO:TX:t=P:problem=kreska pseudotaktowa	!	!
.	.	.	.	.	.	.	.	.	4g\	.	.	4ee\	-re	-tus
!	!LO:MO:null:mod=.	!	!	!LO:MO:null:mod=.	!	!	!	!	!a	!	!	!	!	!
0D	-des	.	0D	-des	.	.	.	.	2f#X\	.	.	2dd\	ſe-	ar-
!	!	!	!	!	!	!LO:TX:t=P:problem=kreska pseudotaktowa	!	!	!	!	!	!	!	!
.	.	.	.	.	.	2B\	.	.	1g\	.	.	2b\	.	.
=26-	=26-	=26-	=26-	=26-	=26-	=26-	=26-	=26-	=26-	=26-	=26-	=26-	=26-	=26-
.	.	.	.	.	.	1A	.	.	.	.	.	1dd	.	.
!	!	!	!	!	!	!	!	!	!LO:TX:t=P:problem=kreska pseudotaktowa	!	!	!	!	!
!	!	!	!	!	!	!	!	!	!LO:TX:a:t=P:problem=# above	!	!	!	!	!
.	.	.	.	.	.	.	.	.	2f#X\	.	.	.	.	.
!LO:MO:mod=1GG;	!LO:MO:null:mod=des.	!	!LO:MO:mod=1GG;	!LO:MO:null:mod=-des.	!LO:MO:mod=-tus.	!LO:MO:mod=1B;	!LO:MO:mod=-des.	!LO:MO:mod=-tus.	!LO:MO:mod=1g;	!LO:MO:mod=-des.	!LO:MO:mod=-tus.	!LO:MO:mod=1dd;	!LO:MO:mod=-des.	!
1GG;;l	.	-tus.	1GG;;l	.	-tus	1B;;l	-des	-tus	1g;;l	-des	-tus	1dd;;l	-des	-tus.
!LO:LB:g=original	!	!	!	!	!	!	!	!	!LO:LB:g=original	!	!	!	!	!
=27||	=27||	=27||	=27||	=27||	=27||	=27||	=27||	=27||	=27||	=27||	=27||	=27||	=27||	=27||
*M2/1	*	*	*M2/1	*	*	*M2/1	*	*	*M2/1	*	*	*M2/1	*	*
*met(C|)	*	*	*met(C|)	*	*	*met(C|)	*	*	*met(C|)	*	*	*met(C|)	*	*
*mmet(c)	*	*	*mmet(c)	*	*	*mmet(c)	*	*	*mmet(c)	*	*	*mmet(c)	*	*
!	!	!	!	!	!	!	!	!	!LO:TX:a:t=3:mod=	!	!	!LO:TX:t=P:problem=kreska pseudotaktowa	!	!
00r	.	.	00r	.	.	00r	.	.	0r	.	.	1g	Cu-	No-
!	!	!	!	!	!	!	!	!	!	!	!	!LO:TX:t=P:problem=kreska pseudotaktowa	!	!
.	.	.	.	.	.	.	.	.	.	.	.	1a	.	.
!	!	!	!	!	!	!	!	!	!	!	!	!LO:LB:g=original	!	!
=28-	=28-	=28-	=28-	=28-	=28-	=28-	=28-	=28-	=28-	=28-	=28-	=28-	=28-	=28-
!	!	!	!	!	!	!	!	!	!LO:TX:t=P:problem=kreska pseudotaktowa	!	!	!	!LO:MO:mod=-ius	!
.	.	.	.	.	.	.	.	.	1r	.	.	2g/	-jus	-ſter
!	!	!	!	!	!	!	!	!	!	!	!	!LO:TX:t=P:problem=kreska pseudotaktowa	!	!
.	.	.	.	.	.	.	.	.	.	.	.	2e/	.	.
!	!	!	!	!	!	!	!	!	!LO:TX:t=P:problem=kreska pseudotaktowa	!	!	!	!	!
.	.	.	.	.	.	.	.	.	1d	Cu-	No-	1f#X	ob	hinc
=29-	=29-	=29-	=29-	=29-	=29-	=29-	=29-	=29-	=29-	=29-	=29-	=29-	=29-	=29-
!LO:TX:t=P:problem=kreska pseudotaktowa	!	!	!LO:TX:t=P:problem=kreska pseudotaktowa	!	!	!LO:TX:t=P:problem=kreska pseudotaktowa	!	!	!	!LO:MO:null:mod=.	!	!LO:TX:t=P:problem=kreska pseudotaktowa	!	!
00r	.	.	00r	.	.	1r	.	.	1e	-i(us)	.	1g	praeſ-	il-
!	!	!	!	!	!	!LO:TX:t=P:problem=C wielkie, przed kluczem	!	!	!	!LO:MO:null:mod=-ius	!	!	!	!
.	.	.	.	.	.	1G	Cu-	No-	2d/	.	-ſter	1g	-tans	-li
*	*	*	*	*	*	*	*	*	*	*	*ij	*	*	*
!	!	!	!	!	!	!	!	!	!LO:TX:t=P:problem=kreska pseudotaktowa	!	!	!	!	!
.	.	.	.	.	.	.	.	.	2B/	.	No-	.	.	.
=30-	=30-	=30-	=30-	=30-	=30-	=30-	=30-	=30-	=30-	=30-	=30-	=30-	=30-	=30-
!	!	!	!	!	!	!LO:TX:t=P:problem=kreska pseudotaktowa	!	!	!	!	!	!	!	!
.	.	.	.	.	.	1A	.	.	1c	ob	-ſter	2cc\	me-	cho-
*	*	*	*	*	*	*	*	*	*	*	*Xij	*	*	*
!	!	!	!	!	!	!	!	!	!	!	!	!LO:TX:t=P:problem=kreska pseudotaktowa	!	!LO:MO:mod=-rus
.	.	.	.	.	.	.	.	.	.	.	.	2a\	-ri-	-r(us)
!	!	!	!	!	!	!	!	!	!	!	!	!	!LO:MO:mod=-tum	!
.	.	.	.	.	.	2G/	-ius	-ſter	2d\	praes-	il-	2b\	-t(um)	ob-
!	!	!	!	!	!	!LO:TX:t=P:problem=kreska pseudotaktowa	!	!	!LO:TX:t=P:problem=kreska pseudotaktowa	!	!	!	!	!
.	.	.	.	.	.	2E/	.	hinc	2g\	-tans	-li	2g\	fre-	-se-
=31-	=31-	=31-	=31-	=31-	=31-	=31-	=31-	=31-	=31-	=31-	=31-	=31-	=31-	=31-
*lig	*	*	*	*	*	*	*	*	*	*	*	*	*	*
!	!	!	!LO:TX:t=P:problem=kreska pseudotaktowa	!	!	!	!	!	!	!	!	!	!	!
!LO:TX:t=P:problem=zwrotka "Noster hinc illi" rozpisana w Basso ripieno pod powtórzonymi nutami.	!	!	!	!	!	!	!	!	!	!	!	!	!	!
!	!	!	!	!	!	!	!	!	!LO:TX:a:t=P:problem=# above	!LO:MO:mod=me-	!	!	!	!
1D	Cu-	No-	1D	Cu-	No-	1F	ob	il-	2.f#X\	Me-	cho-	4a\	-quen-	-quen-
.	.	.	.	.	.	.	.	.	.	.	.	4g\	.	.
.	.	.	.	.	.	.	.	.	.	.	.	4f#X/	.	.
!	!	!	!	!	!	!	!	!	!LO:TX:t=P:problem=kreska pseudotaktowa	!	!	!LO:TX:t=P:problem=kreska pseudotaktowa	!	!
.	.	.	.	.	.	.	.	.	4f#\	-ri-	-rus	4d/	.	.
*	*	*	*custos:D	*	*	*	*	*	*	*	*	*	*	*
!	!	!	!LO:TX:t=P:problem=kreska pseudotaktowa	!	!	!	!	!	!	!LO:MO:mod=-tum	!	!	!	!
1E	.	.	1E	.	.	2G/	praeſ-	.	2e,<\	-u(m)	ob-	4g\	.	.
.	.	.	.	.	.	.	.	.	.	.	.	4a\	.	.
!	!	!	!	!	!	!	!	!	!LO:TX:t=P:problem=kreska pseudotaktowa	!	!	!	!	!
!	!	!	!	!	!	!LO:TX:t=P:problem=kreska pseudotaktowa	!	!	!	!	!	!	!	!
.	.	.	.	.	.	2G/	-tans	-li	2g\	fre-	-ſe-	4b\	.	.
!	!	!	!	!	!	!	!	!	!	!	!	!LO:TX:t=P:problem=kreska pseudotaktowa	!	!
.	.	.	.	.	.	.	.	.	.	.	.	4cc\	.	.
*Xlig	*	*	*	*	*	*	*	*	*	*	*	*	*	*
!	!	!	!LO:LB:g=original	!	!	!	!	!	!	!	!	!	!	!
=32-	=32-	=32-	=32-	=32-	=32-	=32-	=32-	=32-	=32-	=32-	=32-	=32-	=32-	=32-
2D/	-jus	-ster	(<2D/	-ius	-ſter	2r	.	.	4f#X\	-quen-	-quen-	1dd	.	.
.	.	.	.	.	.	.	.	.	4d\	.	.	.	.	.
!LO:TX:t=P:problem=kreska pseudotaktowa	!	!	!LO:TX:t=P:problem=kreska pseudotaktowa	!	!	!	!LO:MO:mod=me-	!	!	!	!	!	!	!
2BB/	ob	hinc	2BB/)	.	.	2.G/	Me-	cho-	4g\	.	.	.	.	.
.	.	.	.	.	.	.	.	.	4f#\	.	.	.	.	.
(>1C	praes-	.	1C	ob	hinc	.	.	.	4e\	.	.	2.cc\	.	.
!	!	!	!	!	!	!	!	!LO:MO:mod=-rus	!	!	!	!	!	!
.	.	.	.	.	.	4G/	-ri-	-r(us)	4f#\	.	.	.	.	.
!	!	!	!	!	!	!	!LO:MO:mod=-tum	!	!	!	!	!	!	!
.	.	.	.	.	.	1A\	-tu(m)	ob-	4g\	.	.	.	.	.
!	!	!	!	!	!	!	!	!	!LO:TX:t=P:problem=kreska pseudotaktowa	!	!	!LO:TX:t=P:problem=kreska pseudotaktowa	!	!
.	.	.	.	.	.	.	.	.	4e\	.	.	4b\	.	.
=33-	=33-	=33-	=33-	=33-	=33-	=33-	=33-	=33-	=33-	=33-	=33-	=33-	=33-	=33-
2D\)	.	il-	2D/	praeſ-	il-	.	.	.	4f#X\	.	.	1a	.	.
.	.	.	.	.	.	.	.	.	4g\	.	.	.	.	.
!LO:TX:t=P:problem=kreska pseudotaktowa	!	!	!LO:TX:t=P:problem=kreska pseudotaktowa	!	!	!LO:TX:t=P:problem=kreska pseudotaktowa	!	!	!	!	!	!	!	!
2D\	-tans	-li	2D/	-tans	-li	2d\	fre-	-ſe-	4a\	.	.	.	.	.
!	!	!	!	!	!	!	!	!	!LO:TX:t=P:problem=kreska pseudotaktowa	!	!	!	!	!
.	.	.	.	.	.	.	.	.	4f#\	.	.	.	.	.
!	!	!LO:MO:mod=-cho-	!	!	!	!	!	!	!	!	!LO:MO:mod=-tem	!LO:TX:t=P:problem=kreska pseudotaktowa	!	!
2E\	.	Cho-	2E\	.	cho-	2G/	.	-quen-	1g	-ter	-ter	1g	-ter	-tem
!	!	!LO:MO:mod=-rus	!LO:TX:t=P:problem=kreska pseudotaktowa	!LO:MO:mod=me-	!LO:MO:mod=-rus	!	!	!	!	!	!	!	!	!
2C,</	me-	-r(us)	2C/	me-	-r(us)	1e\	-quen-	.	.	.	.	.	.	.
=34-	=34-	=34-	=34-	=34-	=34-	=34-	=34-	=34-	=34-	=34-	=34-	=34-	=34-	=34-
2E\	-ri-	ob-	2E\	-ri-	ob-	.	.	.	2g\	ob	.	1r	.	.
!LO:TX:t=P:problem=kreska pseudotaktowa	!	!	!LO:TX:t=P:problem=kreska pseudotaktowa	!LO:MO:mod=-tum	!	!	!	!	!LO:TX:t=P:problem=kreska pseudotaktowa	!	!	!	!	!
2F\	-tum	-se-	2F\	-tu(m)	-ſe-	4d\	.	.	2d\	praeſ-	.	.	.	.
!	!	!	!	!	!	!LO:TX:t=P:problem=kreska pseudotaktowa	!	!	!	!	!	!	!	!
.	.	.	.	.	.	4c\	.	.	.	.	.	.	.	.
4G\	fre-	-quen-	4G\	fre-	-quen-	1B	.	.	2d\	-tans	.	2r	.	.
4D\	.	.	4D\	.	.	.	.	.	.	.	.	.	.	.
!	!	!	!	!	!LO:MO:null:mod=.	!	!	!	!LO:TX:t=P:problem=kreska pseudotaktowa	!LO:MO:mod=me-	!	!LO:TX:t=P:problem=kreska pseudotaktowa	!	!
1G\	-quen-	.	1G\	-quen-	-ter	.	.	.	2d\	Me-	.	2g/	ae-	con-
=35-	=35-	=35-	=35-	=35-	=35-	=35-	=35-	=35-	=35-	=35-	=35-	=35-	=35-	=35-
!	!	!	!	!	!	!LO:TX:t=P:problem=kreska pseudotaktowa	!	!LO:MO:null:mod=.	!	!	!	!	!	!
.	.	.	.	.	.	1A	.	-tem	4c/	-ri-	.	2a\	-gra	-ci-
.	.	.	.	.	.	.	.	.	4A/	.	.	.	.	.
!	!	!	!	!	!	!	!	!	!	!	!	!LO:TX:t=P:problem=kreska pseudotaktowa	!	!
!	!	!LO:MO:null:mod=.	!LO:TX:a:t=P:problem=# above	!	!	!	!	!	!	!LO:MO:mod=-tum	!	!	!	!
2F#X\	.	-tem	2F#X\	.	.	.	.	.	1d	-t(um)	.	2a\	quae	-nit
!LO:TX:t=P:problem=kreska pseudotaktowa	!	!LO:MO:null:mod=-tem	!LO:TX:t=P:problem=kreska pseudotaktowa	!	!LO:MO:null:mod=-tem	!	!	!LO:MO:mod=-tem	!	!	!	!	!	!
1G	-ter	.	1G	-ter	.	2G,</	-ter	con-	.	.	.	2b\	paſ-	lau-
*	*	*	*	*	*	*	*	*	*custos:f	*	*	*	*	*
!	!	!	!	!	!	!LO:TX:t=P:problem=kreska pseudotaktowa	!	!LO:MO:mod=con-	!	!	!	!LO:TX:t=P:problem=kreska pseudotaktowa	!	!LO:MO:mod=-dem
.	.	.	.	.	.	2G/	ae-	-ci-	1g\	fre-	.	2g/	-ſim	-de(m)
!	!	!	!	!	!	!	!	!	!LO:LB:g=original	!	!	!	!	!
=36-	=36-	=36-	=36-	=36-	=36-	=36-	=36-	=36-	=36-	=36-	=36-	=36-	=36-	=36-
!	!	!	!	!	!	!	!	!LO:MO:mod=-ci-	!	!	!	!	!	!
0r	.	.	0r	.	.	2A/	-gra	-nit	.	.	.	4cc\	ia-	Ce-
*	*	*	*	*	*	*	*	*	*	*	*	*custos:a	*	*
.	.	.	.	.	.	.	.	.	.	.	.	4b\	-cu-	-le-
!	!	!	!	!	!	!	!	!	!LO:TX:t=P:problem=kreska pseudotaktowa	!	!	!	!	!
!	!	!	!	!	!	!	!LO:MO:mod=quae	!LO:MO:mod=-nit	!	!	!	!LO:LB:g=original	!	!
.	.	.	.	.	.	2A/	qu(ae)	lau-	2f#X\	-quen-	.	4a\	-e-	-bres-
!	!	!	!	!	!	!	!	!	!	!	!	!LO:TX:t=P:problem=kreska pseudotaktowa	!	!
.	.	.	.	.	.	.	.	.	.	.	.	4a\	-re	-que
!	!	!	!	!	!	!	!	!LO:MO:null:mod=lau-	!	!	!	!	!	!
.	.	.	.	.	.	2B/	paſ-	.	2g\	-ter	.	2dd\	mem-	pal-
!	!	!	!	!	!	!	!	!LO:MO:mod=-dem	!LO:TX:t=P:problem=kreska pseudotaktowa	!	!	!LO:TX:t=P:problem=kreska pseudotaktowa	!	!
.	.	.	.	.	.	2G/	-ſim	-d(em)	2d\	ae-	Con-	2b\	.	.
!	!	!	!	!	!	!LO:LB:g=original	!	!	!	!	!	!	!	!
=37-	=37-	=37-	=37-	=37-	=37-	=37-	=37-	=37-	=37-	=37-	=37-	=37-	=37-	=37-
!LO:TX:t=P:problem=kreska pseudotaktowa	!	!	!LO:TX:t=P:problem=kreska pseudotaktowa	!	!	!	!	!LO:MO:mod=ce-	!	!	!	!	!	!
1r	.	.	1r	.	.	4c\	ia-	Ce-	2e\	-gra	-ci-	1ee	-bra	.
.	.	.	.	.	.	4B\	-cu-	-le-	.	.	.	.	.	.
!	!	!	!	!	!	!	!	!	!LO:TX:t=P:problem=kreska pseudotaktowa	!	!	!	!	!
.	.	.	.	.	.	4A\	-e-	-breſ-	2e\	quae	-nit	.	.	.
!	!	!	!	!	!	!LO:TX:t=P:problem=kreska pseudotaktowa	!	!	!	!	!	!	!	!
.	.	.	.	.	.	4A\	-re	-que	.	.	.	.	.	.
!	!	!	!	!	!	!	!	!	!	!	!	!LO:TX:t=P:problem=kreska pseudotaktowa	!	!
2r	.	.	2r	.	.	4d\	.	.	2f#X\	paſ-	lau-	1dd	.	-mas
.	.	.	.	.	.	4A\	mem-	.	.	.	.	.	.	.
!LO:TX:t=P:problem=kreska pseudotaktowa	!	!	!LO:TX:t=P:problem=kreska pseudotaktowa	!	!	!	!	!	!LO:TX:t=P:problem=kreska pseudotaktowa	!	!LO:MO:mod=-dem	!	!	!
2D\	ae-	con-	2D/	ae-	con-	1d\	.	pal-	2d\	-sim	-de(m)	.	.	.
=38-	=38-	=38-	=38-	=38-	=38-	=38-	=38-	=38-	=38-	=38-	=38-	=38-	=38-	=38-
!	!	!	!	!	!	!	!	!	!	!	!LO:MO:mod=ce-	!	!	!
2E\	-gra	-ci-	2E\	-gra	-ci-	.	.	.	4g\	ia-	Ce-	2r	.	.
.	.	.	.	.	.	.	.	.	4f#\	.	.	.	.	.
*	*	*	*	*	*	*	*	*	*	*	*	*	*ij	*ij
!	!	!	!LO:TX:t=P:problem=kreska pseudotaktowa	!	!	!LO:TX:t=P:problem=kreska pseudotaktowa	!	!	!	!	!	!LO:TX:t=P:problem=kreska pseudotaktowa	!	!
!	!	!	!	!	!	!LO:TX:a:t=P:problem=# above	!	!	!	!	!	!	!	!
2E\	quae	-nit	2E\	quae	-nit	2c#X\	.	.	4e\	-cu-	-le-	2g/	ae-	con-
!	!	!	!	!	!	!	!	!	!LO:TX:t=P:problem=kreska pseudotaktowa	!	!	!	!	!
.	.	.	.	.	.	.	.	.	4e\	-e-	-bres-	.	.	.
2F#X\	paſ-	lau-	2F#X\	paſ-	lau-	2d\	-bra	-mas	2a\	-re	-que	2a\	-gra	-ci-
!LO:TX:t=P:problem=kreska pseudotaktowa	!	!	!LO:TX:t=P:problem=kreska pseudotaktowa	!	!	!	!	!LO:MO:mod=ce-	!LO:TX:t=P:problem=kreska pseudotaktowa	!LO:MO:mod=mem-	!	!LO:TX:t=P:problem=kreska pseudotaktowa	!	!
2D\	-sim	-dem	2D/	.	.	4d\	ia-	Ce-	2f#X\	Mem-	.	2a\	quae	-nit
!	!	!	!	!	!	!LO:TX:t=P:problem=kreska pseudotaktowa	!	!	!	!	!	!	!	!
.	.	.	.	.	.	4c#\	-cu-	-le-	.	.	.	.	.	.
!LO:LB:g=original	!	!	!	!	!	!	!	!	!	!	!	!	!	!
=39-	=39-	=39-	=39-	=39-	=39-	=39-	=39-	=39-	=39-	=39-	=39-	=39-	=39-	=39-
!	!	!	!	!	!LO:MO:mod=-dem	!	!	!	!	!	!	!	!	!
4G\	ja-	ce-	4G\	-ſim	-d(em)	4B\	-e-	-breſ-	1g	.	.	2b\	paſ-	lau-
4F\ny	-cu-	-le-	4F\ny	.	.	4B\	-re	-que	.	.	.	.	.	.
*	*	*	*	*	*	*	*ij	*ij	*	*	*	*	*	*
!	!	!	!	!	!LO:MO:mod=ce-	!	!	!LO:MO:mod=ce-	!	!	!	!LO:TX:t=P:problem=kreska pseudotaktowa	!	!
4E\	-e-	-bres-	4E\	ia-	Ce-	4e\	ia-	Ce-	.	.	.	2g/	-ſim	-dem
!	!	!	!LO:TX:t=P:problem=kreska pseudotaktowa	!	!	!LO:TX:t=P:problem=kreska pseudotaktowa	!	!	!	!	!	!	!	!
4E\	-re	-que	4E\	-cu-	-le-	4d\	-cu-	-le-	.	.	.	.	.	.
!	!	!	!	!	!	!LO:TX:a:t=P:problem=♭ above	!	!	!	!	!	!	!	!
!	!	!	!	!	!	!LO:N:acc=-	!	!	!	!	!	!	!	!
!	!	!	!	!	!	!LO:SIC:s=4c	!	!	!	!	!	!	!	!
2A\	mem-	.	2A\	-e-	-bres-	4cn\	-e-	-breſ-	2e\	.	pal-	2.a\	ia-	ce-
.	.	.	.	.	.	4c\	-re	-que	.	.	.	.	.	.
*	*	*	*	*	*	*	*Xij	*Xij	*	*	*	*	*	*
!LO:TX:t=P:problem=kreska pseudotaktowa	!	!	!LO:TX:t=P:problem=kreska pseudotaktowa	!	!	!	!	!	!LO:TX:t=P:problem=kreska pseudotaktowa	!	!	!	!	!
!	!	!LO:MO:mod=pal-	!	!	!	!	!LO:MO:mod=mem-	!	!LO:TX:a:t=P:problem=# above	!	!	!	!	!
2F#X\	.	Pal-	2F#X\	-re	-que	1d\	Mem-	pal-	2f#X\	.	.	.	.	.
!	!	!	!	!	!	!	!	!	!	!	!	!LO:TX:t=P:problem=kreska pseudotaktowa	!	!
.	.	.	.	.	.	.	.	.	.	.	.	4a\	-cu-	-le-
=40-	=40-	=40-	=40-	=40-	=40-	=40-	=40-	=40-	=40-	=40-	=40-	=40-	=40-	=40-
2G\	.	.	2G\	mem-	pal-	.	.	.	2d/	.	.	2dd\	-e-	-bres-
!	!	!	!LO:TX:t=P:problem=kreska pseudotaktowa	!	!	!LO:TX:t=P:problem=kreska pseudotaktowa	!	!	!	!	!	!LO:TX:t=P:problem=kreska pseudotaktowa	!	!
2E\	.	.	2E\	.	.	2c\	-bra	-mas	1g	.	.	2g/	-re	-que
1D	-bra.	.	1D	.	.	2r	.	.	.	.	.	1a	mem-	pal-
!	!	!	!	!	!	!	!LO:MO:mod=vi-	!LO:MO:mod=ut	!LO:TX:a:t=P:problem=# above	!	!	!	!	!
.	.	.	.	.	.	2.d\	Vi-	Vt	2f#X\	.	.	.	.	.
=41-	=41-	=41-	=41-	=41-	=41-	=41-	=41-	=41-	=41-	=41-	=41-	=41-	=41-	=41-
*	*	*	*custos:G	*	*	*	*	*	*	*	*	*	*	*
!	!	!	!LO:TX:t=P:problem=kreska pseudotaktowa	!	!	!	!	!	!	!	!	!	!	!
!LO:TX:t=P:problem=kreska pseudotaktowa	!	!	!	!	!	!	!	!	!LO:TX:t=P:problem=kreska pseudotaktowa	!	!	!	!	!
0GG	.	-mas	0GG	-bra	-mas	.	.	.	1g	-bra	-mas	2b\	-bra	-mas
*	*	*	*	*	*	*	*	*	*	*	*	*	*Xij	*Xij
.	.	.	.	.	.	4d\	-ri-	pi-	.	.	.	.	.	.
!	!	!	!	!	!	!LO:TX:t=P:problem=kreska pseudotaktowa	!LO:MO:mod=-bus	!	!	!	!	!	!	!LO:MO:mod=ut
.	.	.	.	.	.	2d\	-b(us)	-is	.	.	.	2.dd\	vi-	Vt
.	.	.	.	.	.	4G/	.	.	0r	.	.	.	.	.
!	!	!	!	!	!	!	!LO:MO:mod=mor-	!	!	!	!	!	!	!
.	.	.	.	.	.	4A/	Mor-	e-	.	.	.	4dd\	-ri-	pi-
!	!	!	!	!	!	!	!	!	!	!	!	!LO:TX:t=P:problem=kreska pseudotaktowa	!	!
.	.	.	.	.	.	4B/	.	.	.	.	.	2dd\	-bus	-is
!	!	!	!	!	!	!LO:TX:t=P:problem=kreska pseudotaktowa	!	!	!	!	!	!	!	!
.	.	.	.	.	.	4c\	.	.	.	.	.	.	.	.
!	!	!	!LO:LB:g=original	!	!	!	!	!	!	!	!	!	!	!
=42-	=42-	=42-	=42-	=42-	=42-	=42-	=42-	=42-	=42-	=42-	=42-	=42-	=42-	=42-
!	!	!	!	!	!	!	!	!	!	!	!	!	!LO:MO:mod=mor-	!
2r	.	.	2rG	.	.	2.d\	.	.	.	.	.	4g\	Mor-	e-
.	.	.	.	.	.	.	.	.	.	.	.	4a\	.	.
!LO:TX:t=P:problem=w drugim przebiegu w takcie trzy półnuty	!	!LO:MO:mod=ut	!	!LO:MO:mod=vi-	!LO:MO:mod=ut	!	!	!	!	!	!	!	!	!
2.G\	vi-	Ut	2.G\	Vi-	Ut	.	.	.	.	.	.	4b\	.	.
!	!	!	!	!	!	!LO:TX:t=P:problem=kreska pseudotaktowa	!	!	!	!	!	!LO:TX:t=P:problem=kreska pseudotaktowa	!	!
.	.	.	.	.	.	4c\	.	.	.	.	.	4cc\	.	.
!	!	!	!	!	!	!	!	!	!LO:TX:t=P:problem=kreska pseudotaktowa	!	!	!	!	!
.	.	.	.	.	.	4B\	.	.	1r	.	.	4dd\	.	.
!	!	!LO:MO:mod=pi-	!	!	!LO:MO:mod=pi-	!	!	!	!	!	!	!	!	!
4G\	-ri-	p(i-	4G\	-ri-	p(i-	4A\	.	.	.	.	.	4cc\	.	.
!LO:TX:t=P:problem=kreska pseudotaktowa	!	!LO:MO:mod=-is	!LO:TX:t=P:problem=kreska pseudotaktowa	!	!LO:MO:mod=-is	!	!	!	!	!	!	!	!	!
2G\	-bus	-i)s	2G\	-bus	-i)s	4B\	.	.	.	.	.	4dd\	.	.
!	!	!	!	!	!	!LO:TX:t=P:problem=kreska pseudotaktowa	!	!	!	!	!	!LO:TX:t=P:problem=kreska pseudotaktowa	!	!
.	.	.	.	.	.	4G\	.	.	.	.	.	4b\	.	.
=43-	=43-	=43-	=43-	=43-	=43-	=43-	=43-	=43-	=43-	=43-	=43-	=43-	=43-	=43-
!	!	!	!	!	!	!	!	!	!	!	!	!LO:TX:t=P:problem=kreska pseudotaktowa	!	!
4C/	mor-	e-	4C/	mor-	e-	1c	.	.	2re	.	.	1ee	.	.
4D/	.	.	4D/	.	.	.	.	.	.	.	.	.	.	.
!	!	!	!	!	!	!	!	!	!LO:TX:t=P:problem=kreska pseudotaktowa	!LO:MO:mod=vi-	!	!	!	!
!	!	!	!	!	!	!	!	!	!LO:SIC:s=2.g	!	!	!	!	!
4E/	.	.	4E\	.	.	.	.	.	[<2.g\	Vi-	ut	.	.	.
!LO:TX:t=P:problem=kreska pseudotaktowa	!	!	!LO:TX:t=P:problem=kreska pseudotaktowa	!	!	!	!	!	!	!	!	!	!	!
4F/ny	.	.	4F\ny	.	.	.	.	.	.	.	.	.	.	.
!	!	!	!	!	!	!LO:TX:t=P:problem=kreska pseudotaktowa	!	!	!	!	!	!	!	!
4G\	.	.	4G\	.	.	1B	.	.	.	.	.	1dd	.	.
!	!	!	!	!	!	!	!	!	!LO:SIC:s=4g	!	!	!	!	!
4F\	.	.	4F\	.	.	.	.	.	4g\]	-ri-	pi-	.	.	.
!	!	!	!	!	!	!	!	!	!LO:TX:t=P:problem=kreska pseudotaktowa	!LO:MO:mod=-bus	!	!	!	!
4G\	.	.	4G\	.	.	.	.	.	2g\	-b(us)	-is	.	.	.
!LO:TX:t=P:problem=kreska pseudotaktowa	!	!	!LO:TX:t=P:problem=kreska pseudotaktowa	!	!	!	!	!	!	!	!	!	!	!
4E\	.	.	4E\	.	.	.	.	.	.	.	.	.	.	.
!	!	!	!	!	!	!	!	!	!	!	!	!LO:LB:g=original	!	!
=44-	=44-	=44-	=44-	=44-	=44-	=44-	=44-	=44-	=44-	=44-	=44-	=44-	=44-	=44-
!	!	!	!	!	!	!	!	!	!	!	!LO:MO:null:mod=e-	!	!	!
2A\	.	.	2A\	.	.	1A	.	.	4c\	mor-	.	2cc\	.	.
!	!	!	!	!	!	!	!	!	!	!	!LO:MO:null:mod=.	!	!	!
.	.	.	.	.	.	.	.	.	4d\	.	e-	.	.	.
!	!	!	!	!	!	!	!	!	!	!	!	!LO:TX:t=P:problem=kreska pseudotaktowa	!	!
4G\	.	.	4G\	.	.	.	.	.	4e\	.	.	2g/	-bi	-ius
!LO:TX:t=P:problem=kreska pseudotaktowa	!	!	!LO:TX:t=P:problem=kreska pseudotaktowa	!	!	!	!	!	!LO:TX:t=P:problem=kreska pseudotaktowa	!	!	!	!	!
4F\	.	.	4F\	.	.	.	.	.	4f\ny	.	.	.	.	.
!	!	!	!	!	!	!LO:TX:t=P:problem=kreska pseudotaktowa	!	!	!	!	!	!	!	!
4E\	.	.	4E\	.	.	1G	-bi	-ius	4g\	.	.	2.cc\	Do-	pre-
4D\	.	.	4D/	.	.	.	.	.	4f\	.	.	.	.	.
4E\	.	-jus	4E\	.	.	.	.	.	4g\	.	.	.	.	.
!	!	!	!LO:TX:t=P:problem=kreska pseudotaktowa	!	!	!	!	!	!LO:TX:t=P:problem=kreska pseudotaktowa	!	!	!LO:TX:t=P:problem=kreska pseudotaktowa	!	!
4C\	.	.	4C/	.	.	.	.	.	4e\	.	.	4b\	-mi-	-ci-
!	!	!	!	!	!	!	!	!	!LO:LB:g=original	!	!	!	!	!
=45-	=45-	=45-	=45-	=45-	=45-	=45-	=45-	=45-	=45-	=45-	=45-	=45-	=45-	=45-
*	*	*	*	*	*	*custos:c	*	*	*	*	*	*	*	*
!	!	!	!	!	!	!	!	!	!	!	!	!	!	!LO:MO:mod=-bus
2F\	-bi	pre-	2F\	.	.	2r	.	.	2a\	.	.	4a\	-tis	-b(us)
.	.	.	.	.	.	.	.	.	.	.	.	4a\	ſa-	ju-
!	!	!	!	!	!	!LO:LB:g=original	!	!	!	!	!	!	!	!
!	!	!	!LO:TX:t=P:problem=kreska pseudotaktowa	!	!	!	!	!	!LO:TX:t=P:problem=kreska pseudotaktowa	!	!LO:MO:mod=-ius	!LO:TX:t=P:problem=kreska pseudotaktowa	!	!
2E\	.	.	2E\	-bi	-ius	2.c\	Do-	pre-	2g\	-bi	-jus	2cc\	-lu-	-ve-
!LO:LB:g=original	!	!	!	!LO:MO:mod=mor-	!	!	!	!	!	!	!LO:MO:null:mod=e-	!	!LO:MO:null:mod=.	!
2D\	do-	-ci-	2D/	Mor-	e-	.	.	.	2f-X\	mor-	.	1dd	-ti	.
.	.	.	.	.	.	4c\	-mi-	-ci-	.	.	.	.	.	.
!LO:TX:t=P:problem=kreska pseudotaktowa	!	!	!LO:TX:t=P:problem=kreska pseudotaktowa	!	!	!	!	!	!	!	!LO:MO:null:mod=.	!	!	!
2G\	-mi-	.	2G\	.	.	4B\	-no	-bus	2d\	.	e-	.	.	.
!	!	!	!	!	!	!LO:TX:t=P:problem=kreska pseudotaktowa	!	!	!	!	!	!	!	!
.	.	.	.	.	.	4B\	.	.	.	.	.	.	.	.
=46-	=46-	=46-	=46-	=46-	=46-	=46-	=46-	=46-	=46-	=46-	=46-	=46-	=46-	=46-
!	!	!	!	!	!LO:MO:mod=-ius	!	!	!	!LO:TX:t=P:problem=kreska pseudotaktowa	!	!LO:MO:mod=-ius	!LO:TX:t=P:problem=kreska pseudotaktowa	!LO:MO:null:mod=-ti	!
2C,</	-tis	-bus	2C/	-bi	-i(us)	2c\	ſa-	ju-	1e	-bi	-i(us)	1cc	.	-mur
!	!	!	!LO:TX:t=P:problem=kreska pseudotaktowa	!	!	!LO:TX:t=P:problem=kreska pseudotaktowa	!	!	!	!	!	!	!	!
2.c\	do-	pre-	2.c\	Do-	pre-	2e\	-lu-	-ve-	.	.	.	.	.	.
!	!	!	!	!	!	!	!	!LO:MO:mod=-mur	!	!	!	!	!	!
.	.	.	.	.	.	1d	-ti	-m(ur)	2re	.	.	0r	.	.
4c\	-mi-	-ci-	4c\	-mi-	-ci-	.	.	.	.	.	.	.	.	.
!	!	!LO:MO:mod=-bus	!	!	!	!	!	!	!	!	!	!	!	!
4B\	-tis	-b(us)	4B\	-tis	-bus	.	.	.	2.g\	Do-	pre-	.	.	.
!LO:TX:t=P:problem=kreska pseudotaktowa	!	!	!LO:TX:t=P:problem=kreska pseudotaktowa	!	!	!	!	!	!	!	!	!	!	!
4B\	.	ju-	4B\	ſa-	ju-	.	.	.	.	.	.	.	.	.
=47-	=47-	=47-	=47-	=47-	=47-	=47-	=47-	=47-	=47-	=47-	=47-	=47-	=47-	=47-
!	!	!	!LO:TX:t=P:problem=kreska pseudotaktowa	!	!	!LO:TX:t=P:problem=kreska pseudotaktowa	!	!	!	!	!	!	!	!
1A	sa-	-ve-	1A	-lu-	-ve-	1c	.	.	.	.	.	.	.	.
.	.	.	.	.	.	.	.	.	4g\	-mi-	-ci-	.	.	.
.	.	.	.	.	.	.	.	.	4f\ny	-tis	-bus	.	.	.
!	!	!	!	!	!	!	!	!	!LO:TX:t=P:problem=kreska pseudotaktowa	!	!	!	!	!
!	!	!	!	!	!	!	!	!	!LO:TX:a:t=P:problem=# above	!	!	!	!	!
.	.	.	.	.	.	.	.	.	4f#X\	.	.	.	.	.
!	!	!LO:MO:mod=-mur	!	!	!LO:MO:mod=-mur	!	!	!	!	!	!	!LO:TX:t=P:problem=kreska pseudotaktowa	!	!
2G\	-lu-	-m(ur)	2G\	-ti	-m(ur)	1B	re-	om-	1g	ſa-	ju-	1r	.	.
1E\	-ti	o-	1E\	re-	o-	.	.	.	.	.	.	.	.	.
=48-	=48-	=48-	=48-	=48-	=48-	=48-	=48-	=48-	=48-	=48-	=48-	=48-	=48-	=48-
!	!	!	!	!	!	!LO:TX:t=P:problem=kreska pseudotaktowa	!	!	!	!	!	!	!	!
.	.	.	.	.	.	1c	-ſti-	-ne	2g\	-lu-	-vem	2rcc	.	.
!	!	!	!	!	!	!	!	!	!LO:TX:t=P:problem=kreska pseudotaktowa	!	!	!	!	!
1F	re-	.	1F	.	.	.	.	.	2c/	-ti	.	2.cc\	re-	o-
.	.	.	.	.	.	1d	-tu-	per	2f\ny	re-	.	.	.	.
.	.	.	.	.	.	.	.	.	.	.	.	4cc\	-ſti-	-mne
!LO:TX:t=P:problem=kreska pseudotaktowa	!	!	!LO:TX:t=P:problem=kreska pseudotaktowa	!	!	!	!	!	!LO:TX:t=P:problem=kreska pseudotaktowa	!	!	!LO:TX:t=P:problem=kreska pseudotaktowa	!	!
2G\	.	.	2G\	.	-mne	.	.	.	2d/	-ſti-	o-	2b\	-tu-	per
=49-	=49-	=49-	=49-	=49-	=49-	=49-	=49-	=49-	=49-	=49-	=49-	=49-	=49-	=49-
2A\	-ſti-	-mne	2A\	-ſti-	.	2A/	.	.	1a	-tu-	-mne	2cc\	-un-	.
*	*	*	*custos:G	*	*	*	*	*	*	*	*	*	*	*
!	!	!	!	!	!	!	!	!	!	!	!	!LO:TX:t=P:problem=kreska pseudotaktowa	!	!
2F\	-tu-	per	2F\	-tu-	per	1c	.	ae-	.	.	.	2ff\	.	ae-
!LO:TX:t=P:problem=kreska pseudotaktowa	!	!	!	!	!	!	!	!	!LO:TX:t=P:problem=kreska pseudotaktowa	!	!	!	!	!
!	!	!	!LO:LB:g=original	!	!	!	!	!	!	!	!	!	!	!
!	!	!	!LO:TX:t=P:problem=kreska pseudotaktowa	!	!	!	!	!	!	!	!	!	!	!
1G	-un-	ae-	1G	-un-	ae-	.	.	.	1g	.	.	1dd	.	.
!	!	!	!	!	!	!LO:TX:t=P:problem=kreska pseudotaktowa	!	!	!	!	!	!	!	!
.	.	.	.	.	.	2B\	-un-	.	.	.	.	.	.	.
=50-	=50-	=50-	=50-	=50-	=50-	=50-	=50-	=50-	=50-	=50-	=50-	=50-	=50-	=50-
!	!	!LO:MO:mod=-vum	!	!LO:MO:mod=-tur	!LO:MO:mod=-vum	!	!LO:MO:mod=-tur	!LO:MO:mod=-vum	!	!	!	!	!	!LO:MO:mod=-vum
2C,</	-tur	-vu(m);	2C/	-t(ur)	-uum	2c\	-t(ur)	-u(um)	2e\	.	per	2cc\	-tur	-u(um)
!	!	!	!	!	!	!	!	!	!	!	!	!LO:TX:t=P:problem=kreska pseudotaktowa	!	!
1BB	re-	o-	1BB	re-	o-	1d	re-	o-	1d	-un-	.	2r	.	.
*	*	*	*	*	*	*	*	*	*	*	*	*	*ij	*ij
.	.	.	.	.	.	.	.	.	.	.	.	1g	re-	om-
!	!	!LO:MO:mod=-mne	!	!	!	!	!	!	!	!LO:MO:mod=-tur	!	!	!	!
1C/	.	-(mn)e	1C/	.	.	1c\	-ſti-	-mne	1e\	-t(ur)	ae-	.	.	.
=51-	=51-	=51-	=51-	=51-	=51-	=51-	=51-	=51-	=51-	=51-	=51-	=51-	=51-	=51-
.	.	.	.	.	.	.	.	.	.	.	.	2a\	-ſti-	-ne
!LO:TX:t=P:problem=kreska pseudotaktowa	!	!	!LO:TX:t=P:problem=kreska pseudotaktowa	!	!	!	!	!	!LO:TX:t=P:problem=kreska pseudotaktowa	!	!LO:MO:mod=-vum	!LO:TX:t=P:problem=kreska pseudotaktowa	!	!
2D\	-sti-	.	2D/	-sti-	.	1B	-tu-	.	2f#X\	re-	-u(um)	2dd\	-tu-	.
2E\	-tu-	per	2E/	-tu-	-mne	.	.	.	2.g\	-ſti-	.	2g/	.	per
!	!	!	!LO:TX:t=P:problem=kreska pseudotaktowa	!	!	!	!	!	!	!	!	!	!	!
2C/	.	ae-	2C/	.	per	1A\	-un-	per	.	.	.	1cc\	-un-	ae-
.	.	.	.	.	.	.	.	.	8a\L	.	.	.	.	.
!	!	!	!	!	!	!	!	!	!LO:TX:t=P:problem=kreska pseudotaktowa	!	!	!	!	!
.	.	.	.	.	.	.	.	.	8g\J	.	.	.	.	.
=52-	=52-	=52-	=52-	=52-	=52-	=52-	=52-	=52-	=52-	=52-	=52-	=52-	=52-	=52-
*	*	*	*	*	*	*	*	*	*	*	*ij	*	*	*
0D	-un-	.	0D	-un-	ae-	.	.	.	2f#X\	-tu-	per	.	.	.
!	!	!	!	!	!	!LO:TX:t=P:problem=kreska pseudotaktowa	!	!	!	!	!	!LO:TX:t=P:problem=kreska pseudotaktowa	!	!
.	.	.	.	.	.	2B\	.	.	1g	.	ae-	2b\	.	.
.	.	.	.	.	.	1A	.	ae-	.	.	.	1dd	.	.
!	!	!	!	!	!	!	!	!	!LO:TX:a:t=P:problem=# above	!	!	!	!	!
.	.	.	.	.	.	.	.	.	2f#\	-un-	.	.	.	.
=53-	=53-	=53-	=53-	=53-	=53-	=53-	=53-	=53-	=53-	=53-	=53-	=53-	=53-	=53-
!LO:SIC:s=0GG;	!LO:MO:mod=-tur	!	!LO:SIC:s=0GG;	!LO:MO:mod=-tur	!LO:MO:mod=-vum	!LO:SIC:s=0B;	!	!LO:MO:mod=-vum	!LO:SIC:s=0g;	!	!LO:MO:mod=-vum	!LO:SIC:s=0b;	!	!LO:MO:mod=-vum
0GG;;l	-t(ur).	-vum	0GG;;l	-t(ur)	-uu(m).	0B;;l	-tur	-u(um)	0g;;l	-tur	-u(um)	0b;;l	-tur	-u(um)
*	*	*	*	*	*	*	*	*	*	*	*Xij	*	*Xij	*Xij
!LO:LB:g=original	!	!	!	!	!	!	!	!	!LO:LB:g=original	!	!	!LO:LB:g=original	!	!
=54||	=54||	=54||	=54||	=54||	=54||	=54||	=54||	=54||	=54||	=54||	=54||	=54||	=54||	=54||
*M3/2	*	*	*M3/2	*	*	*M3/2	*	*	*M3/2	*	*	*M3/2	*	*
2D\	Sit	.	2D/	Sit	.	2d\	Sit	.	2f#X\	Sit	.	2a\	Sit	.
2D\	sa-	.	2D/	ſa-	.	2d\	ſa-	.	2f#\	ſa-	.	2a\	ſa-	.
!LO:TX:t=P:problem=kreska pseudotaktowa	!	!	!LO:TX:t=P:problem=kreska pseudotaktowa	!LO:MO:mod=-lus	!	!LO:TX:t=P:problem=kreska pseudotaktowa	!LO:MO:mod=-lus	!	!LO:TX:t=P:problem=kreska pseudotaktowa	!	!	!LO:TX:t=P:problem=kreska pseudotaktowa	!LO:MO:mod=-lus	!
2D\	-lus	.	2D/	-l(us)	.	2d\	-l(us)	.	2f#\	-lus	.	2a\	-l(us)	.
!	!	!	!	!	!	!LO:LB:g=original	!	!	!	!	!	!	!	!
=55-	=55-	=55-	=55-	=55-	=55-	=55-	=55-	=55-	=55-	=55-	=55-	=55-	=55-	=55-
1G	il-	.	1G	il-	.	1d	il-	.	1g	il-	.	1b	il-	.
!LO:TX:t=P:problem=kreska pseudotaktowa	!	!	!LO:TX:t=P:problem=kreska pseudotaktowa	!	!	!LO:TX:t=P:problem=kreska pseudotaktowa	!	!	!LO:TX:t=P:problem=kreska pseudotaktowa	!	!	!LO:TX:t=P:problem=kreska pseudotaktowa	!	!
2G\	-li	.	2G\	-li	.	2d\	-li	.	2g\	-li	.	2g/	-li	.
=56-	=56-	=56-	=56-	=56-	=56-	=56-	=56-	=56-	=56-	=56-	=56-	=56-	=56-	=56-
!	!	!	!	!	!	!	!LO:MO:mod=de-	!	!	!	!	!	!	!
2.G\	de-	.	2.G\	de-	.	2.B\	De-	.	2.g\	de-	.	2.dd\	de-	.
!	!	!	!	!LO:MO:mod=-cus	!	!	!LO:MO:mod=-cus	!	!	!LO:MO:mod=-cus	!	!	!LO:MO:mod=-cus	!
4E\	-cus	.	4E\	-c(us)	.	4c\	-c(us)	.	4g\	-c(us)	.	4ee\	-c(us)	.
!	!	!	!	!	!	!LO:TX:t=P:problem=kreska pseudotaktowa	!	!	!LO:TX:t=P:problem=kreska pseudotaktowa	!	!	!LO:TX:t=P:problem=kreska pseudotaktowa	!	!
!	!	!	!LO:TX:a:t=P:problem=♭ above	!	!	!	!	!	!	!	!	!	!	!
!	!	!	!LO:N:acc=-	!	!	!	!	!	!	!	!	!	!	!
!LO:TX:t=P:problem=kreska pseudotaktowa	!	!	!LO:TX:t=P:problem=kreska pseudotaktowa	!	!	!	!	!	!	!	!	!	!	!
!LO:SIC:s=2F	!	!	!LO:SIC:s=2F	!	!	!	!	!	!	!	!	!	!	!
2Fn\	at-	.	2F\n	at-	.	2A/	at-	.	2a\	at-	.	2cc\	at-	.
=57-	=57-	=57-	=57-	=57-	=57-	=57-	=57-	=57-	=57-	=57-	=57-	=57-	=57-	=57-
!	!LO:MO:mod=-que	!	!	!	!	!	!LO:MO:mod=-que	!	!	!LO:MO:mod=-que	!	!	!LO:MO:mod=-que	!
2D/	-q(ue)	.	2D/	-que	.	2d\	-q(ue)	.	2a\	-q(ue)	.	2ff\	-q(ue)	.
!	!	!	!	!	!	!	!LO:MO:mod=vir-	!	!	!LO:MO:mod=vir-	!	!LO:TX:t=P:problem=kreska pseudotaktowa	!LO:MO:mod=vir-	!
2A\	vir-	.	2A\	vir-	.	2d\	Vir-	.	1a	Vir-	.	1ee	Vir-	.
!LO:TX:t=P:problem=kreska pseudotaktowa	!	!	!LO:TX:t=P:problem=kreska pseudotaktowa	!	!	!LO:TX:t=P:problem=kreska pseudotaktowa	!	!	!	!	!	!	!	!
2AA/	.	.	2AA/	.	.	2c#X\	.	.	.	.	.	.	.	.
=58-	=58-	=58-	=58-	=58-	=58-	=58-	=58-	=58-	=58-	=58-	=58-	=58-	=58-	=58-
*	*	*	*custos:AA	*	*	*	*	*	*	*	*	*	*	*
!LO:TX:t=P:problem=kreska pseudotaktowa	!	!	!LO:TX:t=P:problem=kreska pseudotaktowa	!	!	!LO:TX:t=P:problem=kreska pseudotaktowa	!	!	!LO:TX:t=P:problem=kreska pseudotaktowa	!	!	!LO:TX:t=P:problem=kreska pseudotaktowa	!LO:MO:mod=-tus	!
1.D	-tus	.	1.D	-tuſ	.	1.d	-tus	.	1.f#X	-tus	.	1.dd	-t(us)	.
!	!	!	!LO:LB:g=original	!	!	!	!	!	!	!	!	!	!	!
=59-	=59-	=59-	=59-	=59-	=59-	=59-	=59-	=59-	=59-	=59-	=59-	=59-	=59-	=59-
!	!	!	!	!LO:MO:mod=qui	!	!	!	!	!	!	!	!	!	!
2A\	qui	.	2AA/	Qui	.	2e\	qui	.	2a\	qui	.	2cc#X\	qui	.
2AA/	su-	.	2AA/	ſu-	.	2e\	ſu-	.	2a\	ſu-	.	2cc#\	ſu-	.
!LO:TX:t=P:problem=kreska pseudotaktowa	!	!	!LO:TX:t=P:problem=kreska pseudotaktowa	!	!	!LO:TX:t=P:problem=kreska pseudotaktowa	!	!	!	!	!	!LO:TX:t=P:problem=kreska pseudotaktowa	!	!
2A\	-per	.	2AA/	-per	.	2e\	-per	.	2a\	-per	.	2cc#\	-per	.
=60-	=60-	=60-	=60-	=60-	=60-	=60-	=60-	=60-	=60-	=60-	=60-	=60-	=60-	=60-
!	!	!	!	!	!	!LO:SIC:s=1f	!	!	!LO:SIC:s=1f	!	!	!	!	!
1D	cae-	.	1D	cae-	.	1fn	cae-	.	1fn	cae-	.	1dd	cae-	.
!LO:TX:t=P:problem=kreska pseudotaktowa	!	!	!LO:TX:t=P:problem=kreska pseudotaktowa	!	!	!LO:TX:t=P:problem=kreska pseudotaktowa	!	!	!LO:TX:t=P:problem=kreska pseudotaktowa	!	!	!LO:TX:t=P:problem=kreska pseudotaktowa	!	!
2D\	-li	.	2D/	-li	.	2f\	-li	.	2f\	-li	.	2dd\	-li	.
=61-	=61-	=61-	=61-	=61-	=61-	=61-	=61-	=61-	=61-	=61-	=61-	=61-	=61-	=61-
2.D/	ſo-	.	2.D/	ſo-	.	2.d\	ſo-	.	2.f\	ſo-	.	2.dd\	ſo-	.
4BB/	-li-	.	4BB/	-li-	.	4d\	-li-	.	4g\	-li-	.	4dd\	-li-	.
!LO:TX:t=P:problem=kreska pseudotaktowa	!	!	!LO:TX:t=P:problem=kreska pseudotaktowa	!	!	!LO:TX:t=P:problem=kreska pseudotaktowa	!	!	!LO:TX:t=P:problem=kreska pseudotaktowa	!	!	!LO:TX:t=P:problem=kreska pseudotaktowa	!	!
2C/	-o	.	2C/	-o	.	2e\	-o	.	2e/	-o	.	2cc-X\	-o	.
=62-	=62-	=62-	=62-	=62-	=62-	=62-	=62-	=62-	=62-	=62-	=62-	=62-	=62-	=62-
2AA/	co-	.	2AA/	co-	.	2e\	cor-	.	2a\	co-	.	2cc\ny	co-	.
!LO:TX:t=P:problem=kreska pseudotaktowa	!	!	!	!	!	!	!	!	!	!	!	!LO:TX:t=P:problem=kreska pseudotaktowa	!	!
1E	-ruſ-	.	2E\	-ruſ-	.	1e	-ruſ-	.	2a\	-ruſ-	.	1b	-ruſ-	.
!	!	!	!LO:TX:t=P:problem=kreska pseudotaktowa	!	!	!	!	!	!LO:TX:a:t=P:problem=# above	!LO:MO:null:mod=.	!	!	!	!
.	.	.	2EE/	.	.	.	.	.	2g#X\	-canſ	.	.	.	.
=63-	=63-	=63-	=63-	=63-	=63-	=63-	=63-	=63-	=63-	=63-	=63-	=63-	=63-	=63-
!	!	!	!	!	!	!LO:TX:a:t=P:problem=# above	!	!	!	!	!	!	!	!
!LO:TX:t=P:problem=kreska pseudotaktowa	!	!	!LO:TX:t=P:problem=kreska pseudotaktowa	!	!	!LO:TX:t=P:problem=kreska pseudotaktowa	!	!	!LO:TX:t=P:problem=kreska pseudotaktowa	!LO:MO:null:mod=-cans	!	!LO:TX:t=P:problem=kreska pseudotaktowa	!	!
1.AA	-cans	.	1.AA	-cans	.	1.c#X	-cans	.	1.a	.	.	1.a	-cans	.
!LO:LB:g=original	!	!	!	!	!	!	!	!	!	!	!	!	!	!
=64-	=64-	=64-	=64-	=64-	=64-	=64-	=64-	=64-	=64-	=64-	=64-	=64-	=64-	=64-
!	!LO:MO:mod=to-	!	!	!	!	!	!	!	!	!	!	!	!	!
2A\	To-	.	2A\	to-	.	2cn\	to-	.	2e\	to-	.	2cc\	to-	.
2A\	-ti-	.	2A\	-ti-	.	2A/	-ti-	.	2e\	-ti-	.	2cc\	-ti-	.
!LO:TX:t=P:problem=kreska pseudotaktowa	!	!	!LO:TX:t=P:problem=kreska pseudotaktowa	!LO:MO:mod=-us	!	!LO:TX:t=P:problem=kreska pseudotaktowa	!LO:MO:mod=-us	!	!LO:TX:t=P:problem=kreska pseudotaktowa	!LO:MO:mod=-us	!	!LO:TX:t=P:problem=kreska pseudotaktowa	!LO:MO:mod=-us	!
2A\	-us	.	2A\	-(us)	.	2c\	-(us)	.	2e\	-(us)	.	2cc\	-eſ	.
!	!	!	!	!	!	!	!	!	!	!	!	!LO:LB:g=original	!	!
=65-	=65-	=65-	=65-	=65-	=65-	=65-	=65-	=65-	=65-	=65-	=65-	=65-	=65-	=65-
!	!	!	!	!	!	!	!LO:MO:mod=mun-	!	!	!LO:MO:mod=mun-	!	!	!LO:MO:mod=mun-	!
1G	mun-	.	1G	mun-	.	1d	Mun-	.	1gny	Mun-	.	1b	Mun-	.
!LO:TX:t=P:problem=kreska pseudotaktowa	!	!	!LO:TX:t=P:problem=kreska pseudotaktowa	!	!	!LO:TX:t=P:problem=kreska pseudotaktowa	!	!	!	!	!	!LO:TX:t=P:problem=kreska pseudotaktowa	!	!
2G\	-di	.	2G\	-di	.	2d\	-di	.	2g\	-di	.	2b\	-di	.
!	!	!	!	!	!	!	!	!	!LO:LB:g=original	!	!	!	!	!
=66-	=66-	=66-	=66-	=66-	=66-	=66-	=66-	=66-	=66-	=66-	=66-	=66-	=66-	=66-
!LO:SIC:s=2.F	!	!	!	!	!	!	!	!	!	!	!	!	!	!
2.Fn\	se-	.	2.F\	ſe-	.	2.A/	fe-	.	2.c/	ſe-	.	2.a\	ſe-	.
4F\	-ri-	.	4F\	-ri-	.	4A/	-ri-	.	4c/	-ri-	.	4a\	-ri-	.
!	!	!	!	!	!	!LO:TX:t=P:problem=kreska pseudotaktowa	!	!	!	!	!	!	!	!
!LO:TX:t=P:problem=kreska pseudotaktowa	!	!	!LO:TX:t=P:problem=kreska pseudotaktowa	!LO:MO:mod=-em	!	!	!	!	!LO:TX:t=P:problem=kreska pseudotaktowa	!LO:MO:mod=-em	!	!LO:TX:t=P:problem=kreska pseudotaktowa	!	!
2F\	-em	.	2F\	-e(m)	.	2A/	-em	.	2c/	-e(m)	.	2a\	-em	.
!	!	!	!	!	!	!LO:LB:g=original	!	!	!	!	!	!	!	!
=67-	=67-	=67-	=67-	=67-	=67-	=67-	=67-	=67-	=67-	=67-	=67-	=67-	=67-	=67-
2E/	gu-	.	2E\	gu-	.	2c\	gu-	.	2g\	gu-	.	2cc\	gu-	.
!LO:TX:t=P:problem=brak kreski taktowej	!	!	!	!	!	!	!	!	!	!	!	!	!	!
!	!	!	!LO:TX:t=P:problem=kreska pseudotaktowa	!	!	!LO:TX:t=P:problem=kreska pseudotaktowa	!	!	!LO:N:acc=-	!	!	!	!	!
!	!	!	!	!	!	!	!	!	!LO:SIC:s=1f	!	!	!	!	!
1D	-ber-	.	1D	-ber-	.	1d	-ber-	.	1fn	-ber-	.	(>2cc\	-ber-	.
!	!	!	!	!	!	!	!	!	!	!	!	!LO:TX:t=P:problem=kreska pseudotaktowa	!	!
.	.	.	.	.	.	.	.	.	.	.	.	2b\)	.	.
=68-	=68-	=68-	=68-	=68-	=68-	=68-	=68-	=68-	=68-	=68-	=68-	=68-	=68-	=68-
!LO:TX:t=P:problem=kreska pseudotaktowa	!	!	!LO:TX:t=P:problem=kreska pseudotaktowa	!	!	!LO:TX:t=P:problem=kreska pseudotaktowa	!	!	!LO:TX:t=P:problem=kreska pseudotaktowa	!	!	!LO:TX:t=P:problem=kreska pseudotaktowa	!	!
1.C	-nat	.	1.C	-nat	.	1.G	-nat	.	1.e	-nat	.	1.cc	-nat	.
=69-	=69-	=69-	=69-	=69-	=69-	=69-	=69-	=69-	=69-	=69-	=69-	=69-	=69-	=69-
!LO:TX:a:t=3:mod=	!	!	!	!	!	!	!LO:MO:null:mod=Tri-	!	!	!LO:MO:mod=Tri-	!	!	!	!
0.r	.	.	0.r	.	.	2c\	.	.	2g\	tri-	.	2ee\	Tri-	.
!	!	!	!	!	!	!	!LO:MO:null:mod=-nus	!	!	!LO:MO:mod=-nus	!	!	!	!
.	.	.	.	.	.	2B\	.	.	2g\	-n(us)	.	2dd\	-nuſ	.
!	!	!	!	!	!	!LO:TX:t=P:problem=kreska pseudotaktowa	!LO:MO:mod=et	!	!LO:TX:t=P:problem=kreska pseudotaktowa	!	!	!LO:TX:t=P:problem=kreska pseudotaktowa	!	!
.	.	.	.	.	.	2G/	Tri-	.	2g\	et	.	2b\	et	.
=70-	=70-	=70-	=70-	=70-	=70-	=70-	=70-	=70-	=70-	=70-	=70-	=70-	=70-	=70-
!	!	!	!	!	!	!	!LO:MO:mod=U-	!	!	!LO:MO:mod=U-	!	!	!	!
.	.	.	.	.	.	2c\	-nus	.	1g	V-	.	1cc	U-	.
!	!	!	!	!	!	!	!LO:MO:null:mod=.	!	!	!	!	!	!	!
.	.	.	.	.	.	2A/	et	.	.	.	.	.	.	.
!	!	!	!	!	!	!LO:TX:t=P:problem=kreska pseudotaktowa	!LO:MO:null:mod=.	!	!LO:TX:a:t=P:problem=# above	!LO:MO:null:mod=.	!	!	!	!
.	.	.	.	.	.	2d\	U-	.	2f#X\	-n(us)	.	2a\	.	.
=71-	=71-	=71-	=71-	=71-	=71-	=71-	=71-	=71-	=71-	=71-	=71-	=71-	=71-	=71-
!LO:TX:t=P:problem=kreska pseudotaktowa	!	!	!LO:TX:t=P:problem=kreska pseudotaktowa	!	!	!LO:TX:t=P:problem=kreska pseudotaktowa	!LO:MO:mod=-nus	!	!LO:TX:t=P:problem=kreska pseudotaktowa	!LO:MO:null:mod=-nus	!	!LO:TX:t=P:problem=kreska pseudotaktowa	!	!
1.r	.	.	1.r	.	.	1.G	-n(us)	.	1.g	.	.	1.b	-n(us)	.
=72-	=72-	=72-	=72-	=72-	=72-	=72-	=72-	=72-	=72-	=72-	=72-	=72-	=72-	=72-
!	!	!	!	!	!	!	!LO:MO:null:mod=Tri-	!	!	!	!	!	!LO:MO:null:mod=Tri-	!
2G\	Tri-	.	2G\	Tri-	.	2B\	.	.	2d\	Tri-	.	2g/	.	.
!	!LO:MO:mod=-nus	!	!	!	!	!	!LO:MO:null:mod=-nus	!	!	!	!	!	!LO:MO:mod=-nus	!
2E\	-n(us)	.	2E/	-nus	.	2c\	.	.	2e\	-nus	.	2g/	Tri-	.
*	*	*	*custos:F	*	*	*	*	*	*	*	*	*	*	*
!LO:TX:t=P:problem=kreska pseudotaktowa	!	!	!LO:TX:t=P:problem=kreska pseudotaktowa	!	!	!LO:TX:t=P:problem=kreska pseudotaktowa	!LO:MO:null:mod=et	!	!LO:TX:t=P:problem=kreska pseudotaktowa	!	!	!LO:TX:t=P:problem=kreska pseudotaktowa	!LO:MO:mod=et	!
2C/	et	.	2C/	et	.	2c\	.	.	2e\	et	.	2g/	-nus	.
!	!	!	!LO:LB:g=original	!	!	!	!	!	!	!	!	!	!	!
=73-	=73-	=73-	=73-	=73-	=73-	=73-	=73-	=73-	=73-	=73-	=73-	=73-	=73-	=73-
!	!LO:MO:mod=U-	!	!	!	!	!	!LO:MO:null:mod=U-	!	!LO:SIC:v:s=1f	!LO:MO:mod=U-	!	!	!LO:MO:mod=U-	!
(>2F\	u-	.	2F\	U-	.	(>1c	.	.	1f-X	V-	.	1a	et	.
2D\)	.	.	2D/	.	.	.	.	.	.	.	.	.	.	.
!	!	!	!LO:TX:t=P:problem=kreska pseudotaktowa	!LO:MO:null:mod=.	!	!	!LO:MO:null:mod=.	!	!	!LO:MO:mod=-nus	!	!	!LO:MO:null:mod=.	!
2G\	.	.	2G\	-n(us)	.	2B\)	U-	.	2d\	-n(us)	.	2g/	U-	.
=74-	=74-	=74-	=74-	=74-	=74-	=74-	=74-	=74-	=74-	=74-	=74-	=74-	=74-	=74-
*	*	*	*	*	*	*	*	*	*	*ij	*	*	*	*
!LO:TX:t=P:problem=kreska pseudotaktowa	!LO:MO:mod=-nus	!	!LO:TX:t=P:problem=kreska pseudotaktowa	!LO:MO:null:mod=-nus	!	!LO:TX:t=P:problem=kreska pseudotaktowa	!LO:MO:mod=-nus	!	!LO:TX:t=P:problem=kreska pseudotaktowa	!	!	!LO:TX:t=P:problem=kreska pseudotaktowa	!LO:MO:mod=-nus	!
1.C	-n(us)	.	1.C	.	.	1.c	-n(us)	.	1.e	Tri-	.	1.g	-n(us)	.
=75-	=75-	=75-	=75-	=75-	=75-	=75-	=75-	=75-	=75-	=75-	=75-	=75-	=75-	=75-
*	*	*	*	*	*	*	*ij	*	*	*	*	*	*ij	*
!	!LO:MO:null:mod=Tri-	!	!	!LO:MO:null:mod=Tri-	!	!	!	!	!	!	!	!	!	!
2C/	.	.	2C/	.	.	2e\	Tri-	.	2g\	-nus	.	2cc\	Tri-	.
!	!LO:MO:null:mod=-nus	!	!	!LO:MO:null:mod=-nus	!	!	!	!	!	!	!	!	!	!
2BB/	.	.	2BB/	Tri-	.	2d\	-nus	.	2g\	et	.	2dd\	-nus	.
!LO:TX:t=P:problem=kreska pseudotaktowa	!LO:MO:null:mod=et	!	!LO:TX:t=P:problem=kreska pseudotaktowa	!LO:MO:null:mod=et	!	!LO:TX:t=P:problem=kreska pseudotaktowa	!	!	!LO:TX:t=P:problem=kreska pseudotaktowa	!LO:MO:mod=U-	!	!LO:TX:t=P:problem=kreska pseudotaktowa	!	!
2GG/	.	.	2GG/	-n(us)	.	2B\	et	.	2g\	V-	.	2dd\	et	.
=76-	=76-	=76-	=76-	=76-	=76-	=76-	=76-	=76-	=76-	=76-	=76-	=76-	=76-	=76-
!	!LO:MO:null:mod=U-	!	!	!LO:MO:null:mod=U-	!	!	!	!	!	!	!	!	!	!
1C	.	.	1C	.	.	1.c	U-	.	2e\	.	.	2.ee\	U-	.
!	!	!	!	!	!	!	!	!	!LO:TX:a:t=P:problem=# above	!LO:MO:mod=-nus	!	!	!	!
.	.	.	.	.	.	.	.	.	2f#X\	-n(us)	.	.	.	.
*	*	*	*	*	*	*	*	*	*	*Xij	*	*	*	*
.	.	.	.	.	.	.	.	.	.	.	.	4dd\	.	.
!	!LO:MO:null:mod=-nus	!	!LO:TX:t=P:problem=kreska pseudotaktowa	!LO:MO:null:mod=-nus	!	!	!	!	!LO:TX:t=P:problem=kreska pseudotaktowa	!	!	!LO:TX:t=P:problem=kreska pseudotaktowa	!	!
2AA/	.	.	2AA/	et	.	.	.	.	2g\	et	.	2cc\	-nus	.
*	*	*	*	*	*	*	*	*	*	*	*	*	*Xij	*
=77-	=77-	=77-	=77-	=77-	=77-	=77-	=77-	=77-	=77-	=77-	=77-	=77-	=77-	=77-
!	!	!	!LO:TX:t=P:problem=brak kreski taktowej	!	!	!	!	!	!	!	!	!	!	!
!	!LO:MO:null:mod=U-	!	!	!LO:MO:mod=U-	!	!LO:TX:t=P:problem=kreska pseudotaktowa	!	!	!	!LO:MO:mod=U-	!	!LO:TX:t=P:problem=kreska pseudotaktowa	!	!
1.D	.	.	1.D	V-	.	1.A	.	.	1g	V-	.	1.dd	a-	.
!	!	!	!	!	!	!	!	!	!LO:TX:a:t=P:problem=# above	!	!	!	!	!
!	!	!	!	!	!	!	!	!	!LO:TX:t=P:problem=kreska pseudotaktowa	!LO:MO:null:mod=.	!	!	!	!
.	.	.	.	.	.	.	.	.	2f#X\	-n(us)	.	.	.	.
=78-	=78-	=78-	=78-	=78-	=78-	=78-	=78-	=78-	=78-	=78-	=78-	=78-	=78-	=78-
!LO:TX:t=P:problem=kreska pseudotaktowa	!LO:MO:null:mod=-nus	!	!LO:TX:t=P:problem=kreska pseudotaktowa	!LO:MO:mod=-nus	!	!LO:TX:t=P:problem=kreska pseudotaktowa	!	!	!LO:TX:t=P:problem=kreska pseudotaktowa	!LO:MO:null:mod=-nus	!	!	!LO:MO:null:mod=-men	!
1.GG	.	.	1.GG	-n(us)	.	1.B	-n(us)	.	1.g	.	.	1.b	.	.
*	*	*	*	*	*	*	*Xij	*	*	*	*	*	*	*
=79-	=79-	=79-	=79-	=79-	=79-	=79-	=79-	=79-	=79-	=79-	=79-	=79-	=79-	=79-
!	!	!	!	!	!	!	!	!	!	!	!	!LO:SIC:s=0.g;	!LO:MO:mod=a-	!
1C	a-	.	1C	a-	.	1c	a-	.	1e	a-	.	0.g;;	-men	.
!	!LO:MO:null:mod=-men	!	!LO:TX:t=P:problem=kreska pseudotaktowa	!	!	!	!	!	!LO:TX:t=P:problem=kreska pseudotaktowa	!	!	!	!	!
2BB/	.	.	2BB/	-men	.	2G/	-men	.	2d\	-men	.	.	.	.
=80-	=80-	=80-	=80-	=80-	=80-	=80-	=80-	=80-	=80-	=80-	=80-	=80-	=80-	=80-
*	*	*	*	*ij	*	*	*	*	*	*ij	*	*	*	*
!	!LO:MO:mod=a-	!	!	!	!	!	!	!	!	!	!	!	!	!
1.C	-men.	.	1.C	a-	.	1.c	a-	.	1.e	a-	.	.	.	.
=81-	=81-	=81-	=81-	=81-	=81-	=81-	=81-	=81-	=81-	=81-	=81-	=81-	=81-	=81-
!	!LO:MO:null:mod=-men.	!	!LO:SIC:s=1.GG;	!	!	!LO:SIC:s=1.B;	!	!	!LO:SIC:s=1.d;	!LO:MO:mod=-men.	!	!LO:SIC:s=1.g;	!LO:MO:null:mod=-men.	!
1.GG;>l	.	.	1.GG;;l	-men.	.	1.B;;l	-men.	.	1.d;;l	-men	.	1.g;;l	.	.
*	*	*	*	*Xij	*	*	*	*	*	*Xij	*	*	*	*
==	==	==	==	==	==	==	==	==	==	==	==	==	==	==
*-	*-	*-	*-	*-	*-	*-	*-	*-	*-	*-	*-	*-	*-	*-
!!!system-decoration: [(s1,s2,s3,s4)]s5
!!!RDF**kern: > = above
!!!RDF**kern: < = below
!!LO:MO:ori
!!!RDF**kern: l = terminal long
!!LO:MO:end
!!!filter-modern: sic -sq | shed -k -e "s/LO:N:acc/LO:n:acc:/L" | shed -e "s/^(\d+[\/\\]right)/$1yy/I; s/^(\d+[\/\\]left)/$1yy/I" | shed -e "s/^custos:/Xcustos:/I" | shed -e "s/TX(.*):t=P:/tx$1:t=P:/LG" | modori -m | autostem -r | tie -s | shed -k -e "s/[<>]//g" | shed -e "s/-//B" | humtr -p
!!!EED: Antoni Szymański
!!!EEV: 2021-03-24
!!!ENC: Mateusz Solarz
!!!END: 2021-03-18
!!!ENC-modern: Andrzej Borzym
!!!END-modern: 2022-07-07
